;FLAVOR:BFB
;TIME:745
;MINX:2.14748e+06
;MINY:2.14748e+06
;MINZ:2.14748e+06
;MAXX:-2.14748e+06
;MAXY:-2.14748e+06
;MAXZ:-2.14748e+06
;TARGET_MACHINE.NAME:BFB_Test
;Generated with Cura_SteamEngine 5.7.2

G1 X18.546 Y120.958 Z0.1 F1199.3
G1 X19.818 Y120.619 Z0.1 F1199.3
G1 X20.934 Y120.099 Z0.1 F1199.3
G1 X21.976 Y119.373 Z0.1 F1199.3
G1 X22.908 Y118.444 Z0.1 F1199.3
G1 X23.617 Y117.432 Z0.1 F1199.3
G1 X24.159 Y116.278 Z0.1 F1199.3
G1 X24.495 Y115.028 Z0.1 F1199.3
G1 X24.606 Y113.756 Z0.1 F1199.3
G1 X24.498 Y112.502 Z0.1 F1199.3
G1 X24.174 Y111.271 Z0.1 F1199.3
G1 X23.639 Y110.11 Z0.1 F1199.3
G1 X22.913 Y109.072 Z0.1 F1199.3
G1 X21.976 Y108.134 Z0.1 F1199.3
G1 X20.972 Y107.431 Z0.1 F1199.3
G1 X19.818 Y106.889 Z0.1 F1199.3
G1 X18.556 Y106.551 Z0.1 F1199.3
G1 X17.314 Y106.442 Z0.1 F1199.3
G1 X16.02 Y106.553 Z0.1 F1199.3
G1 X14.811 Y106.874 Z0.1 F1199.3
G1 X13.654 Y107.409 Z0.1 F1199.3
G1 X12.594 Y108.148 Z0.1 F1199.3
G1 X11.703 Y109.039 Z0.1 F1199.3
G1 X10.971 Y110.076 Z0.1 F1199.3
G1 X10.429 Y111.23 Z0.1 F1199.3
G1 X10.429 Y111.23 Z0.1 F1199.3
G1 X10.09 Y112.502 Z0.1 F1199.3
G1 X9.982 Y113.756 Z0.1 F1199.3
G1 X10.093 Y115.028 Z0.1 F1199.3
G1 X10.414 Y116.237 Z0.1 F1199.3
G1 X10.949 Y117.394 Z0.1 F1199.3
G1 X11.683 Y118.447 Z0.1 F1199.3
G1 X12.597 Y119.362 Z0.1 F1199.3
G1 X13.616 Y120.077 Z0.1 F1199.3
G1 X14.794 Y120.629 Z0.1 F1199.3
G1 X16.034 Y120.957 Z0.1 F1199.3
G1 X17.27 Y121.066 Z0.1 F1199.3
M103
G1 X17.022 Y121.045 Z0.1 F3600
G1 X16.948 Y121.892 Z0.1 F3600
G1 X12.072 Y125.656 Z0.1 F3600
G1 X11.438 Y125.088 Z0.1 F3600
M101
G1 X11.633 Y124.78 Z0.1 F1199.3
G1 X11.769 Y124.449 Z0.1 F1199.3
G1 X11.849 Y124.075 Z0.1 F1199.3
G1 X11.86 Y123.694 Z0.1 F1199.3
G1 X11.812 Y123.374 Z0.1 F1199.3
G1 X11.673 Y122.969 Z0.1 F1199.3
G1 X11.297 Y122.411 Z0.1 F1199.3
G1 X11.024 Y122.167 Z0.1 F1199.3
G1 X10.417 Y121.857 Z0.1 F1199.3
G1 X10.045 Y121.776 Z0.1 F1199.3
G1 X9.657 Y121.768 Z0.1 F1199.3
G1 X9.314 Y121.816 Z0.1 F1199.3
G1 X8.949 Y121.945 Z0.1 F1199.3
G1 X7.355 Y122.838 Z0.1 F1199.3
G1 X5.972 Y123.398 Z0.1 F1199.3
G1 X4.531 Y123.778 Z0.1 F1199.3
G1 X3.035 Y123.97 Z0.1 F1199.3
G1 X1.552 Y123.97 Z0.1 F1199.3
G1 X0.053 Y123.778 Z0.1 F1199.3
G1 X-1.38 Y123.398 Z0.1 F1199.3
G1 X-2.763 Y122.838 Z0.1 F1199.3
G1 X-4.324 Y121.954 Z0.1 F1199.3
G1 X-4.709 Y121.822 Z0.1 F1199.3
G1 X-5.097 Y121.766 Z0.1 F1199.3
G1 X-5.45 Y121.779 Z0.1 F1199.3
G1 X-5.79 Y121.846 Z0.1 F1199.3
G1 X-6.137 Y121.984 Z0.1 F1199.3
G1 X-6.43 Y122.168 Z0.1 F1199.3
G1 X-6.729 Y122.436 Z0.1 F1199.3
G1 X-6.729 Y122.436 Z0.1 F1199.3
G1 X-6.949 Y122.721 Z0.1 F1199.3
G1 X-7.097 Y122.997 Z0.1 F1199.3
G1 X-7.214 Y123.341 Z0.1 F1199.3
G1 X-7.27 Y123.736 Z0.1 F1199.3
G1 X-7.255 Y124.096 Z0.1 F1199.3
G1 X-7.19 Y124.418 Z0.1 F1199.3
G1 X-7.041 Y124.785 Z0.1 F1199.3
G1 X-6.846 Y125.092 Z0.1 F1199.3
G1 X-6.355 Y125.549 Z0.1 F1199.3
G1 X-4.765 Y126.465 Z0.1 F1199.3
G1 X-3.083 Y127.19 Z0.1 F1199.3
G1 X-2.22 Y127.48 Z0.1 F1131.4
G1 X-1.357 Y127.771 Z0.1 F1012.9
G1 X-1.324 Y127.791 Z0.1 F945.8
G1 X-.436 Y127.906 Z0.1 F987.9
G1 X0.453 Y128.022 Z0.1 F1133.5
G1 X2.279 Y128.102 Z0.1 F1292.3
G1 X4.135 Y128.022 Z0.1 F1292.3
G1 X5.023 Y127.907 Z0.1 F1131.4
G1 X5.912 Y127.791 Z0.1 F986.3
G1 X5.945 Y127.77 Z0.1 F944.3
G1 X6.81 Y127.48 Z0.1 F1011.2
G1 X7.675 Y127.19 Z0.1 F1129.3
G1 X9.331 Y126.478 Z0.1 F1199.3
G1 X10.917 Y125.569 Z0.1 F1199.3
G1 X11.191 Y125.357 Z0.1 F1199.3
G1 X11.438 Y125.088 Z0.1 F1199.3
M103
G1 X11.269 Y125.272 Z0.1 F3600
G1 X11.905 Y125.842 Z0.1 F3600
G1 X12.537 Y124.655 Z0.1 F3600
G1 X12.581 Y123.174 Z0.1 F3600
G1 X11.883 Y121.874 Z0.1 F3600
G1 X11.077 Y121.276 Z0.1 F3600
G1 X-2.768 Y119.856 Z0.1 F3600
G1 X-2.768 Y119.006 Z0.1 F3600
M101
G1 X7.292 Y119.006 Z0.1 F1199.3
G1 X7.44 Y118.959 Z0.1 F1199.3
G1 X7.543 Y118.834 Z0.1 F1199.3
G1 X7.543 Y108.681 Z0.1 F1199.3
G1 X7.441 Y108.554 Z0.1 F1199.3
G1 X7.32 Y108.507 Z0.1 F1199.3
G1 X-2.783 Y108.507 Z0.1 F1199.3
G1 X-2.907 Y108.609 Z0.1 F1199.3
G1 X-2.952 Y108.718 Z0.1 F1199.3
G1 X-2.952 Y118.793 Z0.1 F1199.3
G1 X-2.952 Y118.793 Z0.1 F1199.3
G1 X-2.901 Y118.912 Z0.1 F1199.3
G1 X-2.768 Y119.006 Z0.1 F1199.3
M103
G1 X-2.901 Y118.912 Z0.1 F3600
G1 X-2.935 Y118.832 Z0.1 F3600
G1 X-3.805 Y118.832 Z0.1 F3600
G1 X-7.298 Y121.88 Z0.1 F3600
G1 X-8.646 Y123.676 Z0.1 F3600
G1 X-8.64 Y125.102 Z0.1 F3600
G1 X-12.207 Y127.238 Z0.1 F3600
G1 X-12.631 Y126.503 Z0.1 F3600
M101
G1 X-9.504 Y124.69 Z0.1 F1199.3
G1 X-9.423 Y124.529 Z0.1 F1199.3
G1 X-9.423 Y124.529 Z0.1 F1199.3
G1 X-9.424 Y120.965 Z0.1 F1199.3
G1 X-9.536 Y120.793 Z0.1 F1199.3
G1 X-12.613 Y119.022 Z0.1 F1199.3
G1 X-12.794 Y119.022 Z0.1 F1199.3
G1 X-15.876 Y120.796 Z0.1 F1199.3
G1 X-15.983 Y120.933 Z0.1 F1199.3
G1 X-15.983 Y124.548 Z0.1 F1199.3
G1 X-15.913 Y124.692 Z0.1 F1199.3
G1 X-12.777 Y126.503 Z0.1 F1199.3
G1 X-12.631 Y126.503 Z0.1 F1199.3
M103
G1 X-12.777 Y126.503 Z0.1 F3600
G1 X-12.867 Y126.451 Z0.1 F3600
G1 X-13.293 Y127.186 Z0.1 F3600
G1 X-16.77 Y125.102 Z0.1 F3600
G1 X-18.052 Y122.455 Z0.1 F3600
G1 X-18.343 Y121.658 Z0.1 F3600
M101
G1 X-17.724 Y121.432 Z0.1 F1199.3
G1 X-17.25 Y121.032 Z0.1 F1199.3
G1 X-17.027 Y120.725 Z0.1 F1199.3
G1 X-16.774 Y120.042 Z0.1 F1199.3
G1 X-16.774 Y120.042 Z0.1 F1199.3
G1 X-16.774 Y107.466 Z0.1 F1199.3
G1 X-17.03 Y106.78 Z0.1 F1199.3
G1 X-17.228 Y106.494 Z0.1 F1199.3
G1 X-17.733 Y106.076 Z0.1 F1199.3
G1 X-18.346 Y105.85 Z0.1 F1199.3
G1 X-19.017 Y105.85 Z0.1 F1199.3
G1 X-19.636 Y106.076 Z0.1 F1199.3
G1 X-20.143 Y106.505 Z0.1 F1199.3
G1 X-20.453 Y107.043 Z0.1 F1199.3
G1 X-20.586 Y107.499 Z0.1 F1199.3
G1 X-20.583 Y120.04 Z0.1 F1199.3
G1 X-20.332 Y120.736 Z0.1 F1199.3
G1 X-19.936 Y121.206 Z0.1 F1199.3
G1 X-19.624 Y121.435 Z0.1 F1199.3
G1 X-19.013 Y121.658 Z0.1 F1199.3
G1 X-18.343 Y121.658 Z0.1 F1199.3
M103
G1 X-18.593 Y121.658 Z0.1 F3600
G1 X-18.593 Y122.509 Z0.1 F3600
G1 X-16.77 Y125.102 Z0.1 F3600
G1 X-12.705 Y127.451 Z0.1 F3600
G1 X-8.64 Y125.102 Z0.1 F3600
G1 X-8.64 Y120.41 Z0.1 F3600
G1 X-12.79 Y117.351 Z0.1 F3600
G1 X-12.717 Y116.502 Z0.1 F3600
M101
G1 X-12.205 Y116.46 Z0.1 F1199.3
G1 X-11.783 Y116.346 Z0.1 F1199.3
G1 X-11.346 Y116.147 Z0.1 F1199.3
G1 X-10.956 Y115.877 Z0.1 F1199.3
G1 X-10.586 Y115.51 Z0.1 F1199.3
G1 X-10.33 Y115.143 Z0.1 F1199.3
G1 X-10.109 Y114.675 Z0.1 F1199.3
G1 X-9.994 Y114.215 Z0.1 F1199.3
G1 X-9.954 Y113.767 Z0.1 F1199.3
G1 X-9.954 Y113.767 Z0.1 F1199.3
G1 X-10.001 Y113.253 Z0.1 F1199.3
G1 X-10.109 Y112.833 Z0.1 F1199.3
G1 X-10.309 Y112.397 Z0.1 F1199.3
G1 X-10.579 Y112.007 Z0.1 F1199.3
G1 X-10.955 Y111.631 Z0.1 F1199.3
G1 X-11.311 Y111.379 Z0.1 F1199.3
G1 X-11.743 Y111.176 Z0.1 F1199.3
G1 X-12.205 Y111.052 Z0.1 F1199.3
G1 X-12.733 Y111.006 Z0.1 F1199.3
G1 X-13.161 Y111.042 Z0.1 F1199.3
G1 X-13.625 Y111.162 Z0.1 F1199.3
G1 X-14.101 Y111.383 Z0.1 F1199.3
G1 X-14.452 Y111.631 Z0.1 F1199.3
G1 X-14.801 Y111.975 Z0.1 F1199.3
G1 X-15.078 Y112.365 Z0.1 F1199.3
G1 X-15.279 Y112.79 Z0.1 F1199.3
G1 X-15.406 Y113.251 Z0.1 F1199.3
G1 X-15.454 Y113.756 Z0.1 F1199.3
G1 X-15.411 Y114.235 Z0.1 F1199.3
G1 X-15.294 Y114.677 Z0.1 F1199.3
G1 X-15.095 Y115.114 Z0.1 F1199.3
G1 X-14.829 Y115.5 Z0.1 F1199.3
G1 X-14.485 Y115.849 Z0.1 F1199.3
G1 X-14.092 Y116.129 Z0.1 F1199.3
G1 X-13.666 Y116.331 Z0.1 F1199.3
G1 X-13.161 Y116.466 Z0.1 F1199.3
G1 X-12.717 Y116.502 Z0.1 F1199.3
M103
G1 X-12.966 Y116.482 Z0.1 F3600
G1 X-13.039 Y117.33 Z0.1 F3600
G1 X-11.494 Y117.085 Z0.1 F3600
G1 X-10.428 Y116.47 Z0.1 F3600
G1 X-9.634 Y115.52 Z0.1 F3600
G1 X-9.215 Y114.369 Z0.1 F3600
G1 X-9.216 Y113.142 Z0.1 F3600
G1 X-9.637 Y111.983 Z0.1 F3600
G1 X-12.186 Y109.227 Z0.1 F3600
G1 X-12.612 Y108.489 Z0.1 F3600
M101
G1 X-12.612 Y108.489 Z0.1 F1199.3
G1 X-9.52 Y106.703 Z0.1 F1199.3
G1 X-9.424 Y106.542 Z0.1 F1199.3
G1 X-9.427 Y102.954 Z0.1 F1199.3
G1 X-9.494 Y102.818 Z0.1 F1199.3
G1 X-12.631 Y101.009 Z0.1 F1199.3
G1 X-12.777 Y101.009 Z0.1 F1199.3
G1 X-15.861 Y102.787 Z0.1 F1199.3
G1 X-15.985 Y102.92 Z0.1 F1199.3
G1 X-15.983 Y106.545 Z0.1 F1199.3
G1 X-15.877 Y106.711 Z0.1 F1199.3
G1 X-12.795 Y108.49 Z0.1 F1199.3
G1 X-12.612 Y108.489 Z0.1 F1199.3
M103
G1 X-12.795 Y108.49 Z0.1 F3600
G1 X-12.853 Y108.457 Z0.1 F3600
G1 X-13.28 Y109.194 Z0.1 F3600
G1 X2.196 Y103.821 Z0.1 F3600
G1 X2.27 Y102.974 Z0.1 F3600
M101
G1 X3.032 Y102.911 Z0.1 F1199.3
G1 X3.718 Y102.726 Z0.1 F1199.3
G1 X4.386 Y102.419 Z0.1 F1199.3
G1 X5.012 Y101.986 Z0.1 F1199.3
G1 X5.533 Y101.464 Z0.1 F1199.3
G1 X5.938 Y100.883 Z0.1 F1199.3
G1 X6.251 Y100.222 Z0.1 F1199.3
G1 X6.446 Y99.513 Z0.1 F1199.3
G1 X6.494 Y99.006 Z0.1 F1199.3
G1 X17.279 Y99.006 Z0.1 F1199.3
G1 X18.68 Y99.105 Z0.1 F1199.3
G1 X20.049 Y99.401 Z0.1 F1199.3
G1 X21.339 Y99.884 Z0.1 F1199.3
G1 X22.56 Y100.547 Z0.1 F1199.3
G1 X23.683 Y101.394 Z0.1 F1199.3
G1 X24.654 Y102.365 Z0.1 F1199.3
G1 X25.501 Y103.496 Z0.1 F1199.3
G1 X26.168 Y104.713 Z0.1 F1199.3
G1 X26.647 Y105.999 Z0.1 F1199.3
G1 X26.943 Y107.376 Z0.1 F1199.3
G1 X27.042 Y108.761 Z0.1 F1199.3
G1 X27.042 Y108.761 Z0.1 F1199.3
G1 X27.042 Y118.747 Z0.1 F1199.3
G1 X26.943 Y120.132 Z0.1 F1199.3
G1 X26.643 Y121.509 Z0.1 F1199.3
G1 X26.167 Y122.796 Z0.1 F1199.3
G1 X25.501 Y124.02 Z0.1 F1199.3
G1 X24.654 Y125.143 Z0.1 F1199.3
G1 X23.683 Y126.114 Z0.1 F1199.3
G1 X22.56 Y126.957 Z0.1 F1199.3
G1 X21.339 Y127.624 Z0.1 F1199.3
G1 X20.049 Y128.107 Z0.1 F1199.3
G1 X18.68 Y128.403 Z0.1 F1199.3
G1 X17.278 Y128.506 Z0.1 F1199.3
G1 X7.838 Y128.506 Z0.1 F1199.3
G1 X6.941 Y128.476 Z0.1 F1129.3
G1 X6.043 Y128.445 Z0.1 F1011.2
G1 X5.967 Y128.433 Z0.1 F944.3
G1 X5.044 Y128.472 Z0.1 F987.9
G1 X4.12 Y128.512 Z0.1 F1135.7
G1 X2.317 Y128.538 Z0.1 F1295.1
G1 X0.468 Y128.512 Z0.1 F1297.9
G1 X-.455 Y128.472 Z0.1 F1137.8
G1 X-1.379 Y128.432 Z0.1 F989.5
G1 X-1.455 Y128.444 Z0.1 F945.8
G1 X-2.35 Y128.475 Z0.1 F1012.9
G1 X-3.246 Y128.506 Z0.1 F1131.4
G1 X-22.454 Y128.506 Z0.1 F1199.3
G1 X-22.454 Y99.006 Z0.1 F1199.3
G1 X-1.902 Y99.006 Z0.1 F1199.3
G1 X-1.862 Y99.47 Z0.1 F1199.3
G1 X-1.678 Y100.18 Z0.1 F1199.3
G1 X-1.371 Y100.846 Z0.1 F1199.3
G1 X-.939 Y101.467 Z0.1 F1199.3
G1 X-.409 Y101.995 Z0.1 F1199.3
G1 X0.164 Y102.397 Z0.1 F1199.3
G1 X0.866 Y102.726 Z0.1 F1199.3
G1 X1.578 Y102.914 Z0.1 F1199.3
G1 X2.27 Y102.974 Z0.1 F1199.3
M103
G1 X2.022 Y102.953 Z0.1 F3600
G1 X1.949 Y103.799 Z0.1 F3600
G1 X8.323 Y107.728 Z0.1 F3600
G1 X9.311 Y115.162 Z0.1 F3600
G1 X9.677 Y116.528 Z0.1 F3600
G1 X10.275 Y117.81 Z0.1 F3600
G1 X11.085 Y118.966 Z0.1 F3600
G1 X12.085 Y119.966 Z0.1 F3600
G1 X13.242 Y120.776 Z0.1 F3600
G1 X14.523 Y121.373 Z0.1 F3600
G1 X15.629 Y121.67 Z0.1 F3600
G1 X17.232 Y121.917 Z0.1 F3600
G1 X17.265 Y121.542 Z0.1 F3600
;TYPE:SKIN
M101
G1 X18.62 Y121.425 Z0.1 F1199.3
G1 X19.978 Y121.067 Z0.1 F1199.3
G1 X21.178 Y120.507 Z0.1 F1199.3
G1 X21.178 Y120.507 Z0.1 F1199.3
G1 X22.314 Y119.713 Z0.1 F1199.3
G1 X23.288 Y118.728 Z0.1 F1199.3
G1 X24.025 Y117.676 Z0.1 F1199.3
G1 X24.607 Y116.438 Z0.1 F1199.3
G1 X24.963 Y115.116 Z0.1 F1199.3
G1 X25.078 Y113.752 Z0.1 F1199.3
G1 X24.966 Y112.414 Z0.1 F1199.3
G1 X24.622 Y111.111 Z0.1 F1199.3
G1 X24.047 Y109.866 Z0.1 F1199.3
G1 X23.287 Y108.775 Z0.1 F1199.3
G1 X22.31 Y107.791 Z0.1 F1199.3
G1 X21.216 Y107.019 Z0.1 F1199.3
G1 X19.978 Y106.437 Z0.1 F1199.3
G1 X18.62 Y106.079 Z0.1 F1199.3
G1 X17.294 Y105.966 Z0.1 F1199.3
G1 X15.928 Y106.081 Z0.1 F1199.3
G1 X14.647 Y106.422 Z0.1 F1199.3
G1 X13.367 Y107.019 Z0.1 F1199.3
G1 X12.307 Y107.767 Z0.1 F1199.3
G1 X11.317 Y108.749 Z0.1 F1199.3
G1 X10.559 Y109.828 Z0.1 F1199.3
G1 X9.977 Y111.066 Z0.1 F1199.3
G1 X9.618 Y112.414 Z0.1 F1199.3
G1 X9.506 Y113.752 Z0.1 F1199.3
G1 X9.621 Y115.115 Z0.1 F1199.3
G1 X9.962 Y116.393 Z0.1 F1199.3
G1 X10.537 Y117.638 Z0.1 F1199.3
G1 X11.308 Y118.741 Z0.1 F1199.3
G1 X12.288 Y119.722 Z0.1 F1199.3
G1 X13.367 Y120.485 Z0.1 F1199.3
G1 X14.632 Y121.076 Z0.1 F1199.3
G1 X15.97 Y121.425 Z0.1 F1199.3
G1 X17.265 Y121.542 Z0.1 F1199.3
M103
G1 X17.232 Y121.917 Z0.1 F3600
G1 X12.167 Y125.536 Z0.1 F3600
G1 X11.842 Y125.336 Z0.1 F3600
M101
G1 X12.076 Y124.947 Z0.1 F1199.3
G1 X12.246 Y124.502 Z0.1 F1199.3
G1 X12.321 Y124.12 Z0.1 F1199.3
G1 X12.327 Y123.619 Z0.1 F1199.3
G1 X12.263 Y123.23 Z0.1 F1199.3
G1 X12.086 Y122.732 Z0.1 F1199.3
G1 X11.661 Y122.099 Z0.1 F1199.3
G1 X11.296 Y121.775 Z0.1 F1199.3
G1 X10.925 Y121.554 Z0.1 F1199.3
G1 X10.596 Y121.417 Z0.1 F1199.3
G1 X10.107 Y121.303 Z0.1 F1199.3
G1 X9.588 Y121.296 Z0.1 F1199.3
G1 X9.224 Y121.348 Z0.1 F1199.3
G1 X8.748 Y121.512 Z0.1 F1199.3
G1 X7.143 Y122.41 Z0.1 F1199.3
G1 X5.82 Y122.946 Z0.1 F1199.3
G1 X4.448 Y123.306 Z0.1 F1199.3
G1 X2.995 Y123.494 Z0.1 F1199.3
G1 X1.589 Y123.494 Z0.1 F1199.3
G1 X0.137 Y123.306 Z0.1 F1199.3
G1 X-1.228 Y122.946 Z0.1 F1199.3
G1 X-2.55 Y122.41 Z0.1 F1199.3
G1 X-4.106 Y121.529 Z0.1 F1199.3
G1 X-4.637 Y121.35 Z0.1 F1199.3
G1 X-5.073 Y121.29 Z0.1 F1199.3
G1 X-5.506 Y121.307 Z0.1 F1199.3
G1 X-5.967 Y121.401 Z0.1 F1199.3
G1 X-6.345 Y121.556 Z0.1 F1199.3
G1 X-6.68 Y121.763 Z0.1 F1199.3
G1 X-7.072 Y122.11 Z0.1 F1199.3
G1 X-7.344 Y122.466 Z0.1 F1199.3
G1 X-7.532 Y122.808 Z0.1 F1199.3
G1 X-7.664 Y123.18 Z0.1 F1199.3
G1 X-7.742 Y123.736 Z0.1 F1199.3
G1 X-7.723 Y124.175 Z0.1 F1199.3
G1 X-7.641 Y124.553 Z0.1 F1199.3
G1 X-7.453 Y125.019 Z0.1 F1199.3
G1 X-7.202 Y125.404 Z0.1 F1199.3
G1 X-6.889 Y125.731 Z0.1 F1199.3
G1 X-6.593 Y125.959 Z0.1 F1199.3
G1 X-5.005 Y126.873 Z0.1 F1199.3
G1 X-3.272 Y127.626 Z0.1 F1199.3
G1 X-2.358 Y127.969 Z0.1 F1199.3
G1 X-3.251 Y128.03 Z0.1 F1199.3
G1 X-21.978 Y128.03 Z0.1 F1199.3
G1 X-21.977 Y121.148 Z0.1 F1199.3
G1 X-21.898 Y120.331 Z0.1 F1033.9
G1 X-21.87 Y120.203 Z0.1 F871.6
G1 X-21.873 Y107.46 Z0.1 F841
G1 X-21.865 Y107.251 Z0.1 F835.2
G1 X-21.978 Y106.696 Z0.1 F978.2
G1 X-21.978 Y99.478 Z0.1 F1199.3
G1 X-2.348 Y99.478 Z0.1 F1199.3
G1 X-2.126 Y100.336 Z0.1 F1199.3
G1 X-1.75 Y101.132 Z0.1 F1199.3
G1 X-1.298 Y101.775 Z0.1 F1199.3
G1 X-.708 Y102.365 Z0.1 F1199.3
G1 X-0.084 Y102.805 Z0.1 F1199.3
G1 X0.661 Y103.159 Z0.1 F1199.3
G1 X1.451 Y103.374 Z0.1 F1199.3
G1 X2.27 Y103.45 Z0.1 F1199.3
G1 X3.12 Y103.375 Z0.1 F1199.3
G1 X3.923 Y103.159 Z0.1 F1199.3
G1 X4.631 Y102.827 Z0.1 F1199.3
G1 X5.305 Y102.357 Z0.1 F1199.3
G1 X5.907 Y101.757 Z0.1 F1199.3
G1 X6.338 Y101.133 Z0.1 F1199.3
G1 X6.698 Y100.385 Z0.1 F1199.3
G1 X6.945 Y99.478 Z0.1 F1199.3
G1 X17.254 Y99.478 Z0.1 F1199.3
G1 X18.608 Y99.577 Z0.1 F1199.3
G1 X19.921 Y99.857 Z0.1 F1199.3
G1 X21.135 Y100.312 Z0.1 F1199.3
G1 X22.296 Y100.943 Z0.1 F1199.3
G1 X23.375 Y101.758 Z0.1 F1199.3
G1 X24.286 Y102.668 Z0.1 F1199.3
G1 X25.101 Y103.76 Z0.1 F1199.3
G1 X25.736 Y104.917 Z0.1 F1199.3
G1 X26.187 Y106.123 Z0.1 F1199.3
G1 X26.471 Y107.436 Z0.1 F1199.3
G1 X26.566 Y108.773 Z0.1 F1199.3
G1 X26.566 Y108.773 Z0.1 F1199.3
G1 X26.566 Y118.723 Z0.1 F1199.3
G1 X26.471 Y120.056 Z0.1 F1199.3
G1 X26.183 Y121.381 Z0.1 F1199.3
G1 X25.735 Y122.588 Z0.1 F1199.3
G1 X25.101 Y123.756 Z0.1 F1199.3
G1 X24.286 Y124.835 Z0.1 F1199.3
G1 X23.375 Y125.746 Z0.1 F1199.3
G1 X22.3 Y126.557 Z0.1 F1199.3
G1 X21.135 Y127.192 Z0.1 F1199.3
G1 X19.921 Y127.647 Z0.1 F1199.3
G1 X18.608 Y127.928 Z0.1 F1199.3
G1 X17.254 Y128.029 Z0.1 F1199.3
G1 X7.855 Y128.03 Z0.1 F1199.3
G1 X6.951 Y127.967 Z0.1 F1199.3
G1 X7.852 Y127.631 Z0.1 F1199.3
G1 X9.515 Y126.914 Z0.1 F1199.3
G1 X11.156 Y125.982 Z0.1 F1199.3
G1 X11.478 Y125.734 Z0.1 F1199.3
G1 X11.842 Y125.336 Z0.1 F1199.3
M103
G1 X12.167 Y125.536 Z0.1 F3600
G1 X12.638 Y124.173 Z0.1 F3600
G1 X12.581 Y123.174 Z0.1 F3600
G1 X11.883 Y121.874 Z0.1 F3600
G1 X11.077 Y121.276 Z0.1 F3600
G1 X3.705 Y119.778 Z0.1 F3600
G1 X-3.733 Y119.784 Z0.1 F3600
G1 X-8.64 Y102.41 Z0.1 F3600
G1 X-12.705 Y100.061 Z0.1 F3600
G1 X-16.77 Y102.41 Z0.1 F3600
G1 X-16.778 Y105.84 Z0.1 F3600
G1 X-16.52 Y106.587 Z0.1 F3600
M101
G1 X-16.415 Y106.895 Z0.1 F959.4
M103
G1 X-15.978 Y107.578 Z0.1 F3600
G1 X-10.429 Y111.041 Z0.1 F3600
G1 X-9.637 Y111.983 Z0.1 F3600
G1 X-9.216 Y113.142 Z0.1 F3600
G1 X-8.64 Y120.41 Z0.1 F3600
G1 X-8.64 Y125.102 Z0.1 F3600
G1 X-12.306 Y127.295 Z0.1 F3600
G1 X-12.492 Y126.972 Z0.1 F3600
M101
G1 X-9.208 Y125.069 Z0.1 F1199.3
G1 X-9.038 Y124.859 Z0.1 F1199.3
G1 X-8.947 Y124.575 Z0.1 F1199.3
G1 X-8.947 Y120.94 Z0.1 F1199.3
G1 X-9.007 Y120.713 Z0.1 F1199.3
G1 X-9.228 Y120.425 Z0.1 F1199.3
G1 X-12.42 Y118.586 Z0.1 F1199.3
G1 X-12.775 Y118.531 Z0.1 F1199.3
G1 X-12.977 Y118.579 Z0.1 F1199.3
G1 X-12.977 Y118.579 Z0.1 F1199.3
G1 X-16.213 Y120.437 Z0.1 F1146.5
G1 X-16.427 Y120.654 Z0.1 F1025
G1 X-16.298 Y120.076 Z0.1 F1067
G1 X-16.298 Y114.86 Z0.1 F1199.3
G1 X-16.33 Y113.752 Z0.1 F1281.3
G1 X-16.298 Y112.545 Z0.1 F1281.3
G1 X-16.298 Y107.428 Z0.1 F1199.3
G1 X-16.415 Y106.895 Z0.1 F1072.7
G1 X-16.077 Y107.144 Z0.1 F1067
G1 X-12.981 Y108.926 Z0.1 F1192.1
G1 X-12.764 Y108.978 Z0.1 F1199.3
G1 X-12.419 Y108.922 Z0.1 F1199.3
G1 X-9.228 Y107.075 Z0.1 F1199.3
G1 X-9.017 Y106.818 Z0.1 F1199.3
G1 X-8.951 Y106.597 Z0.1 F1199.3
G1 X-8.951 Y102.89 Z0.1 F1199.3
G1 X-9.158 Y102.458 Z0.1 F1199.3
G1 X-12.339 Y100.627 Z0.1 F1199.3
G1 X-12.535 Y100.552 Z0.1 F1199.3
G1 X-12.827 Y100.541 Z0.1 F1199.3
G1 X-13.025 Y100.608 Z0.1 F1199.3
G1 X-16.25 Y102.457 Z0.1 F1199.3
G1 X-16.453 Y102.877 Z0.1 F1199.3
G1 X-16.454 Y106.075 Z0.1 F1199.3
G1 X-16.518 Y106.573 Z0.1 F1125
G1 X-16.9 Y106.147 Z0.1 F1125
G1 X-17.496 Y105.652 Z0.1 F1199.3
G1 X-18.259 Y105.374 Z0.1 F1199.3
G1 X-19.106 Y105.374 Z0.1 F1199.3
G1 X-19.878 Y105.657 Z0.1 F1199.3
G1 X-20.51 Y106.195 Z0.1 F1199.3
G1 X-20.864 Y106.801 Z0.1 F1199.3
G1 X-21.163 Y107.368 Z0.1 F983
G1 X-21.161 Y120.142 Z0.1 F835.2
G1 X-21.119 Y120.194 Z0.1 F871.6
G1 X-20.72 Y121.009 Z0.1 F1033.9
G1 X-20.23 Y121.591 Z0.1 F1199.3
G1 X-19.796 Y121.871 Z0.1 F1199.3
G1 X-19.102 Y122.13 Z0.1 F1199.3
G1 X-18.255 Y122.13 Z0.1 F1199.3
G1 X-17.48 Y121.848 Z0.1 F1199.3
G1 X-16.947 Y121.4 Z0.1 F1199.3
G1 X-16.52 Y120.933 Z0.1 F1127.1
G1 X-16.458 Y121.504 Z0.1 F1127.1
G1 X-16.458 Y124.587 Z0.1 F1199.3
G1 X-16.25 Y125.047 Z0.1 F1199.3
G1 X-13.065 Y126.885 Z0.1 F1199.3
G1 X-12.869 Y126.96 Z0.1 F1199.3
G1 X-12.492 Y126.972 Z0.1 F1199.3
M103
G1 X-12.306 Y127.295 Z0.1 F3600
G1 X-16.77 Y125.102 Z0.1 F3600
G1 X-16.778 Y121.668 Z0.1 F3600
G1 X-16.521 Y120.919 Z0.1 F3600
M101
G1 X-16.427 Y120.654 Z0.1 F957.9
M103
G1 X-15.978 Y119.934 Z0.1 F3600
G1 X-12.605 Y117.352 Z0.1 F3600
G1 X-12.638 Y116.974 Z0.1 F3600
M101
G1 X-12.108 Y116.923 Z0.1 F1199.3
G1 X-11.579 Y116.773 Z0.1 F1199.3
G1 X-11.023 Y116.506 Z0.1 F1199.3
G1 X-10.615 Y116.206 Z0.1 F1199.3
G1 X-10.207 Y115.798 Z0.1 F1199.3
G1 X-9.938 Y115.411 Z0.1 F1199.3
G1 X-9.699 Y114.931 Z0.1 F1199.3
G1 X-9.699 Y114.931 Z0.1 F1199.3
G1 X-9.537 Y114.356 Z0.1 F1199.3
G1 X-9.473 Y113.745 Z0.1 F1199.3
G1 X-9.535 Y113.165 Z0.1 F1199.3
G1 X-9.645 Y112.722 Z0.1 F1199.3
G1 X-9.875 Y112.198 Z0.1 F1199.3
G1 X-10.203 Y111.714 Z0.1 F1199.3
G1 X-10.615 Y111.298 Z0.1 F1199.3
G1 X-11.027 Y110.994 Z0.1 F1199.3
G1 X-11.539 Y110.742 Z0.1 F1199.3
G1 X-12.108 Y110.585 Z0.1 F1199.3
G1 X-12.677 Y110.527 Z0.1 F1199.3
G1 X-13.295 Y110.581 Z0.1 F1199.3
G1 X-13.825 Y110.731 Z0.1 F1199.3
G1 X-14.345 Y110.978 Z0.1 F1199.3
G1 X-14.791 Y111.297 Z0.1 F1199.3
G1 X-15.165 Y111.667 Z0.1 F1199.3
G1 X-15.461 Y112.087 Z0.1 F1199.3
G1 X-15.721 Y112.624 Z0.1 F1199.3
G1 X-15.848 Y113.128 Z0.1 F1233.8
G1 X-15.894 Y113.73 Z0.1 F1320.8
G1 X-15.857 Y114.32 Z0.1 F1332.5
G1 X-15.754 Y114.791 Z0.1 F1244.1
G1 X-15.529 Y115.306 Z0.1 F1199.3
G1 X-15.192 Y115.803 Z0.1 F1199.3
G1 X-14.796 Y116.211 Z0.1 F1199.3
G1 X-14.288 Y116.56 Z0.1 F1199.3
G1 X-13.784 Y116.792 Z0.1 F1199.3
G1 X-13.193 Y116.938 Z0.1 F1199.3
G1 X-12.638 Y116.974 Z0.1 F1199.3
M103
G1 X-12.605 Y117.352 Z0.1 F3600
G1 X-3.805 Y119.254 Z0.1 F3600
G1 X-3.232 Y119.254 Z0.1 F3600
M101
G1 X-2.944 Y119.44 Z0.1 F1199.3
G1 X-2.738 Y119.476 Z0.1 F1199.3
G1 X7.416 Y119.478 Z0.1 F1199.3
G1 X7.539 Y119.446 Z0.1 F1199.3
G1 X7.914 Y119.115 Z0.1 F1199.3
G1 X8.018 Y118.794 Z0.1 F1199.3
G1 X8.019 Y108.756 Z0.1 F1199.3
G1 X7.945 Y108.439 Z0.1 F1199.3
G1 X7.7 Y108.156 Z0.1 F1199.3
G1 X7.366 Y108.031 Z0.1 F1199.3
G1 X-2.779 Y108.03 Z0.1 F1199.3
G1 X-3.211 Y108.236 Z0.1 F1199.3
G1 X-3.211 Y108.236 Z0.1 F1199.3
G1 X-3.42 Y108.619 Z0.1 F1199.3
G1 X-3.426 Y118.805 Z0.1 F1199.3
G1 X-3.374 Y119.036 Z0.1 F1199.3
G1 X-3.232 Y119.254 Z0.1 F1199.3
M103
G1 X-3.805 Y119.254 Z0.1 F3600
G1 X-8.638 Y122.172 Z0.1 F3600
G1 X-8.64 Y125.102 Z0.1 F3600
G1 X-12.705 Y127.451 Z0.1 F3600
G1 X-21.605 Y127.472 Z0.1 F3600
G1 X-21.728 Y127.472 Z0.1 F3600
M101
G1 X-21.42 Y127.78 Z0.1 F1199.3
M103
G1 X-20.713 Y127.78 Z0.1 F3600
M101
G1 X-21.728 Y126.764 Z0.1 F1199.3
M103
G1 X-21.728 Y126.057 Z0.1 F3600
M101
G1 X-20.005 Y127.78 Z0.1 F1199.3
M103
G1 X-19.298 Y127.78 Z0.1 F3600
M101
G1 X-21.728 Y125.35 Z0.1 F1199.3
M103
G1 X-21.728 Y124.643 Z0.1 F3600
M101
G1 X-18.591 Y127.78 Z0.1 F1199.3
M103
G1 X-17.884 Y127.78 Z0.1 F3600
M101
G1 X-21.728 Y123.936 Z0.1 F1199.3
M103
G1 X-21.728 Y123.229 Z0.1 F3600
M101
G1 X-17.177 Y127.78 Z0.1 F1199.3
M103
G1 X-16.47 Y127.78 Z0.1 F3600
M101
G1 X-21.728 Y122.522 Z0.1 F1199.3
M103
G1 X-21.728 Y121.815 Z0.1 F3600
M101
G1 X-15.763 Y127.78 Z0.1 F1199.3
M103
G1 X-15.056 Y127.78 Z0.1 F3600
M101
G1 X-21.721 Y121.115 Z0.1 F1199.3
M103
G1 X-21.606 Y120.523 Z0.1 F3600
M101
G1 X-20.661 Y121.468 Z0.1 F1199.3
M103
G1 X-20.255 Y121.873 Z0.1 F3600
M101
G1 X-14.349 Y127.78 Z0.1 F1199.3
M103
G1 X-13.642 Y127.78 Z0.1 F3600
M101
G1 X-15.861 Y125.56 Z0.1 F1199.3
M103
G1 X-15.949 Y125.472 Z0.1 F1200
G1 X-16.652 Y124.769 Z0.1 F3600
M101
G1 X-19.041 Y122.38 Z0.1 F1199.3
M103
G1 X-18.334 Y122.38 Z0.1 F3600
M101
G1 X-16.707 Y124.007 Z0.1 F1199.3
M103
G1 X-16.707 Y123.3 Z0.1 F3600
M101
G1 X-17.782 Y122.225 Z0.1 F1199.3
M103
G1 X-17.287 Y122.013 Z0.1 F3600
M101
G1 X-16.707 Y122.593 Z0.1 F1199.3
M103
G1 X-16.707 Y121.886 Z0.1 F3600
M101
G1 X-16.903 Y121.69 Z0.1 F1199.3
M103
G1 X-16.825 Y121.783 Z0.1 F3600
G1 X-16.77 Y125.102 Z0.1 F3600
G1 X-12.705 Y127.451 Z0.1 F3600
G1 X-8.64 Y125.102 Z0.1 F3600
G1 X-8.64 Y120.41 Z0.1 F3600
G1 X-12.705 Y118.061 Z0.1 F3600
G1 X-15.893 Y119.827 Z0.1 F3600
G1 X-15.833 Y119.932 Z0.1 F3600
M101
G1 X-16.048 Y119.717 Z0.1 F1199.3
M103
G1 X-15.385 Y119.673 Z0.1 F3600
M101
G1 X-16.048 Y119.01 Z0.1 F1199.3
M103
G1 X-16.048 Y118.303 Z0.1 F3600
M101
G1 X-14.936 Y119.414 Z0.1 F1199.3
M103
G1 X-14.488 Y119.155 Z0.1 F3600
M101
G1 X-16.048 Y117.595 Z0.1 F1199.3
M103
G1 X-16.048 Y116.888 Z0.1 F3600
M101
G1 X-14.04 Y118.896 Z0.1 F1199.3
M103
G1 X-13.591 Y118.638 Z0.1 F3600
M101
G1 X-16.048 Y116.181 Z0.1 F1199.3
M103
G1 X-16.048 Y115.474 Z0.1 F3600
M101
G1 X-13.142 Y118.38 Z0.1 F1199.3
M103
G1 X-12.483 Y118.332 Z0.1 F3600
M101
G1 X-13.753 Y117.062 Z0.1 F1199.3
M103
G1 X-12.9 Y117.207 Z0.1 F3600
M101
G1 X-10.98 Y119.128 Z0.1 F1199.3
M103
G1 X-10.892 Y119.216 Z0.1 F1200
G1 X-10.812 Y119.08 Z0.1 F3600
G1 X-9.247 Y119.984 Z0.1 F3600
G1 X-9.31 Y120.091 Z0.1 F3600
M101
G1 X-12.216 Y117.185 Z0.1 F1199.3
M103
G1 X-11.643 Y117.051 Z0.1 F3600
M101
G1 X-6.99 Y121.703 Z0.1 F1199.3
M103
G1 X-7.341 Y122.059 Z0.1 F3600
M101
G1 X-8.777 Y120.624 Z0.1 F1199.3
M103
G1 X-8.699 Y121.409 Z0.1 F3600
M101
G1 X-7.635 Y122.473 Z0.1 F1199.3
M103
G1 X-7.847 Y122.967 Z0.1 F3600
M101
G1 X-8.699 Y122.116 Z0.1 F1199.3
M103
G1 X-8.699 Y122.823 Z0.1 F3600
M101
G1 X-7.969 Y123.553 Z0.1 F1199.3
M103
G1 X-7.956 Y124.273 Z0.1 F3600
M101
G1 X-8.699 Y123.53 Z0.1 F1199.3
M103
G1 X-8.699 Y124.237 Z0.1 F3600
M101
G1 X-7.435 Y125.502 Z0.1 F1199.3
M103
G1 X-6.888 Y126.048 Z0.1 F3600
M101
G1 X-5.156 Y127.78 Z0.1 F1199.3
M103
G1 X-5.15 Y127.079 Z0.1 F3600
M101
G1 X-4.449 Y127.78 Z0.1 F1199.3
M103
G1 X-3.894 Y127.628 Z0.1 F3600
M101
G1 X-3.742 Y127.78 Z0.1 F1199.3
M103
G1 X-3.915 Y127.706 Z0.1 F3600
G1 X-5.863 Y127.656 Z0.1 F3600
G1 X-5.863 Y127.78 Z0.1 F3600
M101
G1 X-8.783 Y124.86 Z0.1 F1199.3
M103
G1 X-9.069 Y125.281 Z0.1 F3600
M101
G1 X-6.57 Y127.78 Z0.1 F1199.3
M103
G1 X-7.278 Y127.78 Z0.1 F3600
M101
G1 X-9.517 Y125.54 Z0.1 F1199.3
M103
G1 X-9.965 Y125.799 Z0.1 F3600
M101
G1 X-7.985 Y127.78 Z0.1 F1199.3
M103
G1 X-8.692 Y127.78 Z0.1 F3600
M101
G1 X-10.414 Y126.058 Z0.1 F1199.3
M103
G1 X-10.861 Y126.318 Z0.1 F3600
M101
G1 X-9.399 Y127.78 Z0.1 F1199.3
M103
G1 X-10.106 Y127.78 Z0.1 F3600
M101
G1 X-11.309 Y126.576 Z0.1 F1199.3
M103
G1 X-11.758 Y126.835 Z0.1 F3600
M101
G1 X-10.813 Y127.78 Z0.1 F1199.3
M103
G1 X-11.52 Y127.78 Z0.1 F3600
M101
G1 X-12.205 Y127.095 Z0.1 F1199.3
M103
G1 X-12.805 Y127.202 Z0.1 F3600
M101
G1 X-12.227 Y127.78 Z0.1 F1199.3
M103
G1 X-12.934 Y127.78 Z0.1 F3600
M101
G1 X-14.19 Y126.525 Z0.1 F1199.3
M103
G1 X-14.278 Y126.437 Z0.1 F1200
G1 X-14.357 Y126.572 Z0.1 F3600
G1 X-12.705 Y127.451 Z0.1 F3600
G1 X-8.64 Y125.102 Z0.1 F3600
G1 X-8.641 Y123.128 Z0.1 F3600
G1 X-6.645 Y121.3 Z0.1 F3600
G1 X-6.579 Y121.407 Z0.1 F3600
M101
G1 X-11.143 Y116.843 Z0.1 F1199.3
M103
G1 X-10.701 Y116.578 Z0.1 F3600
M101
G1 X-6.096 Y121.183 Z0.1 F1199.3
M103
G1 X-5.515 Y121.057 Z0.1 F3600
M101
G1 X-10.313 Y116.259 Z0.1 F1199.3
M103
G1 X-9.97 Y115.895 Z0.1 F3600
M101
G1 X-4.788 Y121.077 Z0.1 F1199.3
M103
G1 X-4.7 Y121.165 Z0.1 F1200
G1 X-4.673 Y120.969 Z0.1 F3600
G1 X-3.605 Y121.389 Z0.1 F3600
G1 X-3.665 Y121.493 Z0.1 F3600
M101
G1 X-9.69 Y115.468 Z0.1 F1199.3
M103
G1 X-9.453 Y114.997 Z0.1 F3600
M101
G1 X-2.149 Y122.302 Z0.1 F1199.3
M103
G1 X-2.061 Y122.39 Z0.1 F1200
G1 X-1.998 Y122.235 Z0.1 F3600
G1 X-.965 Y122.633 Z0.1 F3600
G1 X-.996 Y122.748 Z0.1 F3600
M101
G1 X-9.303 Y114.441 Z0.1 F1199.3
M103
G1 X-9.23 Y113.807 Z0.1 F3600
M101
G1 X-0.035 Y123.002 Z0.1 F1199.3
M103
G1 X0.812 Y123.141 Z0.1 F3600
M101
G1 X-2.606 Y119.724 Z0.1 F1199.3
M103
G1 X-1.899 Y119.724 Z0.1 F3600
M101
G1 X1.621 Y123.244 Z0.1 F1199.3
M103
G1 X2.329 Y123.244 Z0.1 F3600
M101
G1 X-1.191 Y119.724 Z0.1 F1199.3
M103
G1 X-.484 Y119.724 Z0.1 F3600
M101
G1 X3.029 Y123.237 Z0.1 F1199.3
M103
G1 X3.655 Y123.156 Z0.1 F3600
M101
G1 X0.224 Y119.725 Z0.1 F1199.3
M103
G1 X0.931 Y119.725 Z0.1 F3600
M101
G1 X4.281 Y123.075 Z0.1 F1199.3
M103
G1 X4.854 Y122.94 Z0.1 F3600
M101
G1 X1.639 Y119.726 Z0.1 F1199.3
M103
G1 X2.346 Y119.726 Z0.1 F3600
M101
G1 X5.414 Y122.793 Z0.1 F1199.3
M103
G1 X5.95 Y122.623 Z0.1 F3600
M101
G1 X3.054 Y119.727 Z0.1 F1199.3
M103
G1 X3.761 Y119.727 Z0.1 F3600
M101
G1 X6.453 Y122.419 Z0.1 F1199.3
M103
G1 X6.957 Y122.215 Z0.1 F3600
M101
G1 X4.468 Y119.727 Z0.1 F1199.3
M103
G1 X5.176 Y119.727 Z0.1 F3600
M101
G1 X7.417 Y121.968 Z0.1 F1199.3
M103
G1 X7.869 Y121.714 Z0.1 F3600
M101
G1 X5.883 Y119.727 Z0.1 F1199.3
M103
G1 X6.591 Y119.728 Z0.1 F3600
M101
G1 X8.323 Y121.46 Z0.1 F1199.3
M103
G1 X8.798 Y121.228 Z0.1 F3600
M101
G1 X7.298 Y119.728 Z0.1 F1199.3
M103
G1 X7.818 Y119.541 Z0.1 F3600
M101
G1 X9.359 Y121.081 Z0.1 F1199.3
M103
G1 X10.036 Y121.052 Z0.1 F3600
M101
G1 X8.155 Y119.171 Z0.1 F1199.3
M103
G1 X8.268 Y118.577 Z0.1 F3600
M101
G1 X11.015 Y121.323 Z0.1 F1199.3
M103
G1 X11.103 Y121.411 Z0.1 F1200
G1 X11.188 Y121.273 Z0.1 F3600
G1 X12.418 Y122.563 Z0.1 F3600
G1 X12.311 Y122.62 Z0.1 F3600
M101
G1 X17.454 Y127.763 Z0.1 F1199.3
M103
G1 X18.113 Y127.714 Z0.1 F3600
M101
G1 X8.268 Y117.87 Z0.1 F1199.3
M103
G1 X8.268 Y117.163 Z0.1 F3600
M101
G1 X18.748 Y127.642 Z0.1 F1199.3
M103
G1 X19.329 Y127.517 Z0.1 F3600
M101
G1 X8.268 Y116.456 Z0.1 F1199.3
M103
G1 X8.268 Y115.748 Z0.1 F3600
M101
G1 X10.392 Y117.872 Z0.1 F1199.3
M103
G1 X10.48 Y117.96 Z0.1 F1200
G1 X10.364 Y118.041 Z0.1 F3600
G1 X9.625 Y116.559 Z0.1 F3600
G1 X9.735 Y116.508 Z0.1 F3600
M101
G1 X8.268 Y115.041 Z0.1 F1199.3
M103
G1 X8.268 Y114.334 Z0.1 F3600
M101
G1 X9.475 Y115.541 Z0.1 F1199.3
M103
G1 X9.335 Y114.693 Z0.1 F3600
M101
G1 X8.268 Y113.627 Z0.1 F1199.3
M103
G1 X8.268 Y112.92 Z0.1 F3600
M101
G1 X9.27 Y113.922 Z0.1 F1199.3
M103
G1 X9.298 Y113.243 Z0.1 F3600
M101
G1 X8.268 Y112.213 Z0.1 F1199.3
M103
G1 X8.268 Y111.506 Z0.1 F3600
M101
G1 X9.353 Y112.59 Z0.1 F1199.3
M103
G1 X9.467 Y111.997 Z0.1 F3600
M101
G1 X8.268 Y110.799 Z0.1 F1199.3
M103
G1 X8.268 Y110.092 Z0.1 F3600
M101
G1 X9.615 Y111.439 Z0.1 F1199.3
M103
G1 X9.781 Y110.897 Z0.1 F3600
M101
G1 X8.268 Y109.384 Z0.1 F1199.3
M103
G1 X8.252 Y108.661 Z0.1 F3600
M101
G1 X10.006 Y110.415 Z0.1 F1199.3
M103
G1 X10.231 Y109.933 Z0.1 F3600
M101
G1 X3.763 Y103.465 Z0.1 F1199.3
M103
G1 X4.275 Y103.27 Z0.1 F3600
M101
G1 X10.493 Y109.488 Z0.1 F1199.3
M103
G1 X10.784 Y109.072 Z0.1 F3600
M101
G1 X4.757 Y103.045 Z0.1 F1199.3
M103
G1 X5.174 Y102.755 Z0.1 F3600
M101
G1 X11.076 Y108.657 Z0.1 F1199.3
M103
G1 X11.42 Y108.293 Z0.1 F3600
M101
G1 X5.573 Y102.446 Z0.1 F1199.3
M103
G1 X5.924 Y102.091 Z0.1 F3600
M101
G1 X11.775 Y107.941 Z0.1 F1199.3
M103
G1 X12.129 Y107.588 Z0.1 F3600
M101
G1 X6.246 Y101.705 Z0.1 F1199.3
M103
G1 X6.534 Y101.286 Z0.1 F3600
M101
G1 X12.543 Y107.296 Z0.1 F1199.3
M103
G1 X12.957 Y107.002 Z0.1 F3600
M101
G1 X6.766 Y100.812 Z0.1 F1199.3
M103
G1 X6.979 Y100.317 Z0.1 F3600
M101
G1 X13.389 Y106.727 Z0.1 F1199.3
M103
G1 X13.871 Y106.502 Z0.1 F3600
M101
G1 X7.128 Y99.759 Z0.1 F1199.3
M103
G1 X7.804 Y99.728 Z0.1 F3600
M101
G1 X14.354 Y106.278 Z0.1 F1199.3
M103
G1 X14.883 Y106.1 Z0.1 F3600
M101
G1 X8.511 Y99.728 Z0.1 F1199.3
M103
G1 X9.218 Y99.728 Z0.1 F3600
M101
G1 X15.442 Y105.951 Z0.1 F1199.3
M103
G1 X16.019 Y105.821 Z0.1 F3600
M101
G1 X9.925 Y99.728 Z0.1 F1199.3
M103
G1 X10.632 Y99.728 Z0.1 F3600
M101
G1 X16.67 Y105.765 Z0.1 F1199.3
M103
G1 X17.334 Y105.722 Z0.1 F3600
M101
G1 X11.339 Y99.728 Z0.1 F1199.3
M103
G1 X12.046 Y99.728 Z0.1 F3600
M101
G1 X18.105 Y105.786 Z0.1 F1199.3
M103
G1 X18.929 Y105.903 Z0.1 F3600
M101
G1 X12.753 Y99.728 Z0.1 F1199.3
M103
G1 X13.46 Y99.728 Z0.1 F3600
M101
G1 X19.882 Y106.149 Z0.1 F1199.3
M103
G1 X19.97 Y106.237 Z0.1 F1200
G1 X20.017 Y106.063 Z0.1 F3600
G1 X21.197 Y106.598 Z0.1 F3600
G1 X21.146 Y106.706 Z0.1 F3600
M101
G1 X14.168 Y99.728 Z0.1 F1199.3
M103
G1 X14.875 Y99.728 Z0.1 F3600
M101
G1 X26.316 Y111.169 Z0.1 F1199.3
M103
G1 X26.316 Y111.876 Z0.1 F3600
M101
G1 X24.338 Y109.898 Z0.1 F1199.3
M103
G1 X24.25 Y109.81 Z0.1 F1200
G1 X24.4 Y109.741 Z0.1 F3600
G1 X25.015 Y111.13 Z0.1 F3600
G1 X24.894 Y111.161 Z0.1 F3600
M101
G1 X26.316 Y112.583 Z0.1 F1199.3
M103
G1 X26.316 Y113.291 Z0.1 F3600
M101
G1 X25.15 Y112.125 Z0.1 F1199.3
M103
G1 X25.26 Y112.941 Z0.1 F3600
M101
G1 X26.316 Y113.998 Z0.1 F1199.3
M103
G1 X26.316 Y114.705 Z0.1 F3600
M101
G1 X25.324 Y113.713 Z0.1 F1199.3
M103
G1 X25.276 Y114.371 Z0.1 F3600
M101
G1 X26.316 Y115.412 Z0.1 F1199.3
M103
G1 X26.316 Y116.119 Z0.1 F3600
M101
G1 X25.221 Y115.024 Z0.1 F1199.3
M103
G1 X25.092 Y115.601 Z0.1 F3600
M101
G1 X26.316 Y116.826 Z0.1 F1199.3
M103
G1 X26.316 Y117.533 Z0.1 F3600
M101
G1 X24.943 Y116.16 Z0.1 F1199.3
M103
G1 X24.765 Y116.689 Z0.1 F3600
M101
G1 X26.316 Y118.24 Z0.1 F1199.3
M103
G1 X26.301 Y118.932 Z0.1 F3600
M101
G1 X24.539 Y117.17 Z0.1 F1199.3
M103
G1 X24.315 Y117.653 Z0.1 F3600
M101
G1 X26.254 Y119.592 Z0.1 F1199.3
M103
G1 X26.179 Y120.224 Z0.1 F3600
M101
G1 X24.042 Y118.087 Z0.1 F1199.3
M103
G1 X23.75 Y118.503 Z0.1 F3600
M101
G1 X26.053 Y120.805 Z0.1 F1199.3
M103
G1 X25.918 Y121.378 Z0.1 F3600
M101
G1 X23.453 Y118.913 Z0.1 F1199.3
M103
G1 X23.103 Y119.269 Z0.1 F3600
M101
G1 X25.727 Y121.893 Z0.1 F1199.3
M103
G1 X25.535 Y122.409 Z0.1 F3600
M101
G1 X22.751 Y119.625 Z0.1 F1199.3
M103
G1 X22.39 Y119.971 Z0.1 F3600
M101
G1 X25.295 Y122.875 Z0.1 F1199.3
M103
G1 X25.046 Y123.334 Z0.1 F3600
M101
G1 X21.973 Y120.261 Z0.1 F1199.3
M103
G1 X21.558 Y120.553 Z0.1 F3600
M101
G1 X24.776 Y123.771 Z0.1 F1199.3
M103
G1 X24.472 Y124.174 Z0.1 F3600
M101
G1 X21.112 Y120.814 Z0.1 F1199.3
M103
G1 X20.631 Y121.04 Z0.1 F3600
M101
G1 X24.168 Y124.577 Z0.1 F1199.3
M103
G1 X23.826 Y124.942 Z0.1 F3600
M101
G1 X20.148 Y121.265 Z0.1 F1199.3
M103
G1 X19.605 Y121.428 Z0.1 F3600
M101
G1 X23.472 Y125.296 Z0.1 F1199.3
M103
G1 X23.105 Y125.636 Z0.1 F3600
M101
G1 X19.044 Y121.574 Z0.1 F1199.3
M103
G1 X18.451 Y121.689 Z0.1 F3600
M101
G1 X22.702 Y125.94 Z0.1 F1199.3
M103
G1 X22.299 Y126.243 Z0.1 F3600
M101
G1 X17.801 Y121.745 Z0.1 F1199.3
M103
G1 X17.128 Y121.78 Z0.1 F3600
M101
G1 X21.859 Y126.511 Z0.1 F1199.3
M103
G1 X21.402 Y126.761 Z0.1 F3600
M101
G1 X16.35 Y121.709 Z0.1 F1199.3
M103
G1 X15.494 Y121.56 Z0.1 F3600
M101
G1 X20.934 Y127 Z0.1 F1199.3
M103
G1 X20.419 Y127.192 Z0.1 F3600
M101
G1 X14.532 Y121.306 Z0.1 F1199.3
M103
G1 X14.444 Y121.218 Z0.1 F1200
G1 X14.373 Y121.369 Z0.1 F3600
G1 X13.104 Y120.753 Z0.1 F3600
G1 X13.174 Y120.654 Z0.1 F3600
M101
G1 X19.905 Y127.385 Z0.1 F1199.3
M103
G1 X19.993 Y127.473 Z0.1 F1200
G1 X19.912 Y127.252 Z0.1 F3600
G1 X16.763 Y127.656 Z0.1 F3600
G1 X16.763 Y127.778 Z0.1 F3600
M101
G1 X12.574 Y123.59 Z0.1 F1199.3
M103
G1 X12.543 Y124.266 Z0.1 F3600
M101
G1 X16.056 Y127.778 Z0.1 F1199.3
M103
G1 X15.348 Y127.778 Z0.1 F3600
M101
G1 X12.391 Y124.821 Z0.1 F1199.3
M103
G1 X12.154 Y125.291 Z0.1 F3600
M101
G1 X14.641 Y127.778 Z0.1 F1199.3
M103
G1 X13.934 Y127.778 Z0.1 F3600
M101
G1 X11.85 Y125.695 Z0.1 F1199.3
M103
G1 X11.489 Y126.04 Z0.1 F3600
M101
G1 X13.227 Y127.778 Z0.1 F1199.3
M103
G1 X12.521 Y127.779 Z0.1 F3600
M101
G1 X11.063 Y126.322 Z0.1 F1199.3
M103
G1 X10.612 Y126.578 Z0.1 F3600
M101
G1 X11.814 Y127.779 Z0.1 F1199.3
M103
G1 X11.107 Y127.779 Z0.1 F3600
M101
G1 X10.162 Y126.834 Z0.1 F1199.3
M103
G1 X9.711 Y127.09 Z0.1 F3600
M101
G1 X10.399 Y127.779 Z0.1 F1199.3
M103
G1 X9.692 Y127.779 Z0.1 F3600
M101
G1 X9.225 Y127.312 Z0.1 F1199.3
M103
G1 X8.985 Y127.779 Z0.1 F3600
M101
G1 X8.731 Y127.525 Z0.1 F1199.3
M103
G1 X8.78 Y127.642 Z0.1 F3600
G1 X11.375 Y126.22 Z0.1 F3600
G1 X12.353 Y125.117 Z0.1 F3600
G1 X12.653 Y123.675 Z0.1 F3600
G1 X12.423 Y122.699 Z0.1 F3600
G1 X11.504 Y121.536 Z0.1 F3600
G1 X10.135 Y120.991 Z0.1 F3600
G1 X-3.733 Y119.784 Z0.1 F3600
G1 X-3.805 Y118.655 Z0.1 F3600
G1 X-3.674 Y118.655 Z0.1 F3600
M101
G1 X-9.318 Y113.011 Z0.1 F1199.3
M103
G1 X-9.406 Y112.923 Z0.1 F1200
G1 X-9.224 Y112.876 Z0.1 F3600
G1 X-9.782 Y111.672 Z0.1 F3600
G1 X-9.882 Y111.741 Z0.1 F3600
M101
G1 X-3.674 Y117.948 Z0.1 F1199.3
M103
G1 X-3.673 Y117.242 Z0.1 F3600
M101
G1 X-11.967 Y108.948 Z0.1 F1199.3
M103
G1 X-11.519 Y108.689 Z0.1 F3600
M101
G1 X-3.673 Y116.535 Z0.1 F1199.3
M103
G1 X-3.672 Y115.829 Z0.1 F3600
M101
G1 X-11.072 Y108.429 Z0.1 F1199.3
M103
G1 X-10.624 Y108.17 Z0.1 F3600
M101
G1 X-3.672 Y115.122 Z0.1 F1199.3
M103
G1 X-3.671 Y114.416 Z0.1 F3600
M101
G1 X-10.176 Y107.911 Z0.1 F1199.3
M103
G1 X-9.728 Y107.651 Z0.1 F3600
M101
G1 X-3.671 Y113.709 Z0.1 F1199.3
M103
G1 X-3.67 Y113.003 Z0.1 F3600
M101
G1 X-9.28 Y107.393 Z0.1 F1199.3
M103
G1 X-8.901 Y107.064 Z0.1 F3600
M101
G1 X-3.669 Y112.296 Z0.1 F1199.3
M103
G1 X-3.669 Y111.589 Z0.1 F3600
M101
G1 X-8.702 Y106.557 Z0.1 F1199.3
M103
G1 X-8.701 Y105.85 Z0.1 F3600
M101
G1 X-3.668 Y110.883 Z0.1 F1199.3
M103
G1 X-3.668 Y110.176 Z0.1 F3600
M101
G1 X-8.7 Y105.145 Z0.1 F1199.3
M103
G1 X-8.699 Y104.438 Z0.1 F3600
M101
G1 X-3.667 Y109.47 Z0.1 F1199.3
M103
G1 X-3.667 Y108.763 Z0.1 F3600
M101
G1 X-8.697 Y103.733 Z0.1 F1199.3
M103
G1 X-8.697 Y103.026 Z0.1 F3600
M101
G1 X-3.493 Y108.23 Z0.1 F1199.3
M103
G1 X-3.113 Y107.902 Z0.1 F3600
M101
G1 X-11.288 Y99.728 Z0.1 F1199.3
M103
G1 X-11.995 Y99.728 Z0.1 F3600
M101
G1 X-10.091 Y101.632 Z0.1 F1199.3
M103
G1 X-10.003 Y101.72 Z0.1 F1200
G1 X-9.927 Y101.591 Z0.1 F3600
G1 X-9.873 Y99.856 Z0.1 F3600
G1 X-9.873 Y99.728 Z0.1 F3600
M101
G1 X-1.82 Y107.781 Z0.1 F1199.3
M103
G1 X-2.527 Y107.781 Z0.1 F3600
M101
G1 X-10.58 Y99.728 Z0.1 F1199.3
M103
G1 X-10.668 Y99.64 Z0.1 F1200
G1 X-10.668 Y99.856 Z0.1 F3600
G1 X-9.166 Y99.856 Z0.1 F3600
G1 X-9.166 Y99.728 Z0.1 F3600
M101
G1 X-1.113 Y107.781 Z0.1 F1199.3
M103
G1 X-.406 Y107.781 Z0.1 F3600
M101
G1 X-8.459 Y99.728 Z0.1 F1199.3
M103
G1 X-7.752 Y99.728 Z0.1 F3600
M101
G1 X0.301 Y107.781 Z0.1 F1199.3
M103
G1 X1.008 Y107.781 Z0.1 F3600
M101
G1 X-7.045 Y99.728 Z0.1 F1199.3
M103
G1 X-6.338 Y99.728 Z0.1 F3600
M101
G1 X1.715 Y107.781 Z0.1 F1199.3
M103
G1 X2.423 Y107.781 Z0.1 F3600
M101
G1 X-5.631 Y99.728 Z0.1 F1199.3
M103
G1 X-4.924 Y99.728 Z0.1 F3600
M101
G1 X3.13 Y107.781 Z0.1 F1199.3
M103
G1 X3.837 Y107.781 Z0.1 F3600
M101
G1 X-4.216 Y99.728 Z0.1 F1199.3
M103
G1 X-3.509 Y99.728 Z0.1 F3600
M101
G1 X-1.942 Y101.296 Z0.1 F1199.3
M103
G1 X-1.854 Y101.384 Z0.1 F1200
G1 X-1.975 Y101.468 Z0.1 F3600
G1 X-2.575 Y100.111 Z0.1 F3600
G1 X-2.452 Y100.079 Z0.1 F3600
M101
G1 X-2.802 Y99.728 Z0.1 F1199.3
M103
G1 X-2.802 Y99.856 Z0.1 F3600
G1 X-2.046 Y101.263 Z0.1 F3600
G1 X-1.37 Y102.153 Z0.1 F3600
G1 X-.3 Y103.108 Z0.1 F3600
G1 X-.229 Y103.008 Z0.1 F3600
M101
G1 X4.544 Y107.781 Z0.1 F1199.3
M103
G1 X5.251 Y107.781 Z0.1 F3600
M101
G1 X0.976 Y103.506 Z0.1 F1199.3
M103
G1 X1.841 Y103.664 Z0.1 F3600
M101
G1 X5.958 Y107.781 Z0.1 F1199.3
M103
G1 X6.665 Y107.781 Z0.1 F3600
M101
G1 X2.562 Y103.678 Z0.1 F1199.3
M103
G1 X3.202 Y103.612 Z0.1 F3600
M101
G1 X7.372 Y107.781 Z0.1 F1199.3
M103
G1 X7.46 Y107.869 Z0.1 F1200
G1 X7.46 Y107.656 Z0.1 F3600
G1 X15.582 Y99.856 Z0.1 F3600
G1 X15.582 Y99.728 Z0.1 F3600
M101
G1 X26.316 Y110.462 Z0.1 F1199.3
M103
G1 X26.316 Y109.755 Z0.1 F3600
M101
G1 X16.289 Y99.728 Z0.1 F1199.3
M103
G1 X16.996 Y99.728 Z0.1 F3600
M101
G1 X26.316 Y109.048 Z0.1 F1199.3
M103
G1 X26.283 Y108.308 Z0.1 F3600
M101
G1 X17.74 Y99.764 Z0.1 F1199.3
M103
G1 X18.503 Y99.82 Z0.1 F3600
M101
G1 X26.229 Y107.546 Z0.1 F1199.3
M103
G1 X26.048 Y106.658 Z0.1 F3600
M101
G1 X19.39 Y100 Z0.1 F1199.3
M103
G1 X19.302 Y99.912 Z0.1 F1200
G1 X19.261 Y100.1 Z0.1 F3600
G1 X20.356 Y100.424 Z0.1 F3600
G1 X20.401 Y100.304 Z0.1 F3600
M101
G1 X25.742 Y105.645 Z0.1 F1199.3
M103
G1 X25.83 Y105.733 Z0.1 F1200
G1 X25.663 Y105.794 Z0.1 F3600
G1 X25.015 Y104.374 Z0.1 F3600
G1 X25.121 Y104.317 Z0.1 F3600
M101
G1 X21.717 Y100.913 Z0.1 F1199.3
M103
G1 X21.629 Y100.825 Z0.1 F1200
G1 X21.552 Y100.966 Z0.1 F3600
G1 X3.165 Y103.694 Z0.1 F3600
G1 X1.591 Y103.709 Z0.1 F3600
G1 X-11.697 Y100.568 Z0.1 F3600
G1 X-11.758 Y100.672 Z0.1 F3600
M101
G1 X-12.702 Y99.728 Z0.1 F1199.3
M103
G1 X-12.84 Y100.297 Z0.1 F3600
M101
G1 X-13.409 Y99.728 Z0.1 F1199.3
M103
G1 X-14.116 Y99.728 Z0.1 F3600
M101
G1 X-13.345 Y100.499 Z0.1 F1199.3
M103
G1 X-13.794 Y100.757 Z0.1 F3600
M101
G1 X-14.823 Y99.728 Z0.1 F1199.3
M103
G1 X-15.53 Y99.728 Z0.1 F3600
M101
G1 X-14.243 Y101.015 Z0.1 F1199.3
M103
G1 X-14.692 Y101.273 Z0.1 F3600
M101
G1 X-16.237 Y99.728 Z0.1 F1199.3
M103
G1 X-16.944 Y99.728 Z0.1 F3600
M101
G1 X-15.141 Y101.531 Z0.1 F1199.3
M103
G1 X-15.59 Y101.789 Z0.1 F3600
M101
G1 X-17.652 Y99.728 Z0.1 F1199.3
M103
G1 X-18.359 Y99.728 Z0.1 F3600
M101
G1 X-16.039 Y102.048 Z0.1 F1199.3
M103
G1 X-16.459 Y102.335 Z0.1 F3600
M101
G1 X-19.066 Y99.728 Z0.1 F1199.3
M103
G1 X-19.773 Y99.728 Z0.1 F3600
M101
G1 X-16.686 Y102.815 Z0.1 F1199.3
M103
G1 X-16.707 Y103.501 Z0.1 F3600
M101
G1 X-20.48 Y99.728 Z0.1 F1199.3
M103
G1 X-21.187 Y99.728 Z0.1 F3600
M101
G1 X-16.706 Y104.209 Z0.1 F1199.3
M103
G1 X-16.705 Y104.917 Z0.1 F3600
M101
G1 X-21.728 Y99.894 Z0.1 F1199.3
M103
G1 X-21.728 Y100.601 Z0.1 F3600
M101
G1 X-16.704 Y105.625 Z0.1 F1199.3
M103
G1 X-16.616 Y105.713 Z0.1 F1200
G1 X-16.836 Y105.713 Z0.1 F3600
G1 X-17.699 Y105.185 Z0.1 F3600
G1 X-17.74 Y105.297 Z0.1 F3600
M101
G1 X-21.728 Y101.309 Z0.1 F1199.3
M103
G1 X-21.728 Y102.016 Z0.1 F3600
M101
G1 X-18.62 Y105.124 Z0.1 F1199.3
M103
G1 X-19.28 Y105.171 Z0.1 F3600
M101
G1 X-21.728 Y102.723 Z0.1 F1199.3
M103
G1 X-21.728 Y103.43 Z0.1 F3600
M101
G1 X-19.797 Y105.361 Z0.1 F1199.3
M103
G1 X-20.233 Y105.632 Z0.1 F3600
M101
G1 X-21.728 Y104.137 Z0.1 F1199.3
M103
G1 X-21.728 Y104.844 Z0.1 F3600
M101
G1 X-20.615 Y105.957 Z0.1 F1199.3
M103
G1 X-20.903 Y106.376 Z0.1 F3600
M101
G1 X-21.728 Y105.551 Z0.1 F1199.3
M103
G1 X-21.728 Y106.258 Z0.1 F3600
M101
G1 X-21.16 Y106.826 Z0.1 F1199.3
M103
G1 X-21.275 Y106.795 Z0.1 F3600
G1 X-16.77 Y102.41 Z0.1 F3600
G1 X-12.705 Y100.061 Z0.1 F3600
G1 X-8.64 Y102.41 Z0.1 F3600
G1 X-8.64 Y107.102 Z0.1 F3600
G1 X-12.705 Y109.451 Z0.1 F3600
G1 X-15.927 Y107.696 Z0.1 F3600
G1 X-16.048 Y107.696 Z0.1 F3600
M101
G1 X-13.394 Y110.35 Z0.1 F1199.3
M103
G1 X-13.945 Y110.506 Z0.1 F3600
M101
G1 X-16.048 Y108.403 Z0.1 F1199.3
M103
G1 X-16.048 Y109.11 Z0.1 F3600
M101
G1 X-14.421 Y110.736 Z0.1 F1199.3
M103
G1 X-14.839 Y111.026 Z0.1 F3600
M101
G1 X-16.048 Y109.817 Z0.1 F1199.3
M103
G1 X-16.048 Y110.524 Z0.1 F3600
M101
G1 X-15.213 Y111.359 Z0.1 F1199.3
M103
G1 X-15.529 Y111.75 Z0.1 F3600
M101
G1 X-16.048 Y111.231 Z0.1 F1199.3
M103
G1 X-16.048 Y111.939 Z0.1 F3600
M101
G1 X-15.79 Y112.196 Z0.1 F1199.3
M103
G1 X-15.912 Y112.139 Z0.1 F3600
G1 X-14.982 Y111.042 Z0.1 F3600
G1 X-14.023 Y110.476 Z0.1 F3600
G1 X-12.767 Y110.157 Z0.1 F3600
G1 X-12.758 Y110.278 Z0.1 F3600
M101
G1 X-14.969 Y108.068 Z0.1 F1199.3
M103
G1 X-15.057 Y107.98 Z0.1 F1200
G1 X-15.139 Y108.12 Z0.1 F3600
G1 X-13.367 Y109.143 Z0.1 F3600
G1 X-13.3 Y109.03 Z0.1 F3600
M101
G1 X-11.964 Y110.365 Z0.1 F1199.3
M103
G1 X-11.876 Y110.453 Z0.1 F1200
G1 X-11.828 Y110.275 Z0.1 F3600
G1 X-12.361 Y109.327 Z0.1 F3600
G1 X-12.451 Y109.171 Z0.1 F3600
M101
G1 X-10.679 Y110.944 Z0.1 F1199.3
M103
G1 X-10.591 Y111.032 Z0.1 F1200
G1 X-10.278 Y110.585 Z0.1 F3600
;MESH:NONMESH
G1 X-10.278 Y110.585 Z0.35 F600
G1 X-10.278 Y110.585 Z0.35 F3600
G1 X4.802 Y103.097 Z0.35 F3600
G1 X6.136 Y101.978 Z0.35 F3600
G1 X6.742 Y101.039 Z0.35 F3600
G1 X7.218 Y99.835 Z0.35 F3600
G1 X6.925 Y99.456 Z0.35 F3600
;TIME_ELAPSED:115.710995
;LAYER:1
M106 S255
;TYPE:FILL
;MESH:test_job.STL
M108 S23.4
M101
G1 X6.685 Y100.357 Z0.35 F1799.7
G1 X6.316 Y101.128 Z0.35 F1799.7
G1 X6.035 Y101.53 Z0.35 F1799.7
G1 X8.109 Y99.456 Z0.35 F1799.7
M103
G1 X8.109 Y99.856 Z0.35 F5400
G1 X12.7 Y107.041 Z0.35 F5400
G1 X12.927 Y107.366 Z0.35 F5400
M101
G1 X20.314 Y99.979 Z0.35 F1799.7
G1 X21.147 Y100.291 Z0.35 F1799.7
G1 X21.322 Y100.385 Z0.35 F1799.7
G1 X15.476 Y106.231 Z0.35 F1799.7
G1 X15.94 Y106.108 Z0.35 F1799.7
G1 X17.116 Y106.005 Z0.35 F1799.7
G1 X22.246 Y100.875 Z0.35 F1799.7
G1 X23.054 Y101.482 Z0.35 F1799.7
G1 X18.445 Y106.091 Z0.35 F1799.7
G1 X18.62 Y106.105 Z0.35 F1799.7
G1 X19.59 Y106.359 Z0.35 F1799.7
G1 X23.801 Y102.149 Z0.35 F1799.7
G1 X24.318 Y102.666 Z0.35 F1799.7
G1 X24.481 Y102.883 Z0.35 F1799.7
G1 X20.605 Y106.759 Z0.35 F1799.7
G1 X21.178 Y107.026 Z0.35 F1799.7
G1 X21.515 Y107.263 Z0.35 F1799.7
G1 X25.094 Y103.684 Z0.35 F1799.7
G1 X25.593 Y104.599 Z0.35 F1799.7
G1 X22.338 Y107.855 Z0.35 F1799.7
G1 X23.043 Y108.564 Z0.35 F1799.7
G1 X26.014 Y105.592 Z0.35 F1799.7
G1 X26.214 Y106.125 Z0.35 F1799.7
G1 X26.334 Y106.687 Z0.35 F1799.7
G1 X23.663 Y109.358 Z0.35 F1799.7
G1 X24.024 Y109.872 Z0.35 F1799.7
G1 X24.196 Y110.239 Z0.35 F1799.7
G1 X26.53 Y107.905 Z0.35 F1799.7
G1 X26.592 Y108.771 Z0.35 F1799.7
G1 X26.592 Y109.257 Z0.35 F1799.7
G1 X24.629 Y111.221 Z0.35 F1799.7
G1 X24.925 Y112.339 Z0.35 F1799.7
G1 X26.592 Y110.671 Z0.35 F1799.7
G1 X26.592 Y112.086 Z0.35 F1799.7
G1 X25.046 Y113.631 Z0.35 F1799.7
G1 X25.057 Y113.757 Z0.35 F1799.7
G1 X24.936 Y115.156 Z0.35 F1799.7
G1 X26.592 Y113.5 Z0.35 F1799.7
G1 X26.592 Y114.914 Z0.35 F1799.7
G1 X24.158 Y117.348 Z0.35 F1799.7
G1 X24.024 Y117.636 Z0.35 F1799.7
G1 X23.259 Y118.727 Z0.35 F1799.7
G1 X22.285 Y119.706 Z0.35 F1799.7
G1 X21.178 Y120.483 Z0.35 F1799.7
G1 X19.955 Y121.052 Z0.35 F1799.7
G1 X18.715 Y121.377 Z0.35 F1799.7
G1 X12.036 Y128.056 Z0.35 F1799.7
G1 X10.621 Y128.056 Z0.35 F1799.7
G1 X17.169 Y121.509 Z0.35 F1799.7
G1 X15.87 Y121.393 Z0.35 F1799.7
G1 X9.207 Y128.056 Z0.35 F1799.7
G1 X7.793 Y128.056 Z0.35 F1799.7
G1 X8.541 Y127.308 Z0.35 F1799.7
G1 X9.52 Y126.888 Z0.35 F1799.7
G1 X11.15 Y125.955 Z0.35 F1799.7
G1 X11.485 Y125.698 Z0.35 F1799.7
G1 X11.843 Y125.299 Z0.35 F1799.7
G1 X12.19 Y124.616 Z0.35 F1799.7
G1 X12.297 Y124.126 Z0.35 F1799.7
G1 X12.294 Y123.556 Z0.35 F1799.7
G1 X14.747 Y121.103 Z0.35 F1799.7
G1 X13.781 Y120.654 Z0.35 F1799.7
G1 X11.931 Y122.504 Z0.35 F1799.7
G1 X11.616 Y122.092 Z0.35 F1799.7
G1 X11.244 Y121.777 Z0.35 F1799.7
G1 X12.9 Y120.121 Z0.35 F1799.7
G1 X12.317 Y119.715 Z0.35 F1799.7
G1 X12.104 Y119.502 Z0.35 F1799.7
G1 X10.245 Y121.362 Z0.35 F1799.7
G1 X9.694 Y121.315 Z0.35 F1799.7
G1 X9.265 Y121.366 Z0.35 F1799.7
G1 X8.756 Y121.525 Z0.35 F1799.7
G1 X8.55 Y121.643 Z0.35 F1799.7
G1 X11.386 Y118.806 Z0.35 F1799.7
G1 X10.802 Y117.976 Z0.35 F1799.7
G1 X5.801 Y122.977 Z0.35 F1799.7
G1 X4.441 Y123.335 Z0.35 F1799.7
G1 X3.968 Y123.396 Z0.35 F1799.7
G1 X10.298 Y117.066 Z0.35 F1799.7
G1 X9.994 Y116.412 Z0.35 F1799.7
G1 X9.898 Y116.052 Z0.35 F1799.7
G1 X7.993 Y117.957 Z0.35 F1799.7
G1 X7.993 Y116.543 Z0.35 F1799.7
G1 X9.631 Y114.905 Z0.35 F1799.7
G1 X9.531 Y113.756 Z0.35 F1799.7
G1 X9.547 Y113.575 Z0.35 F1799.7
G1 X7.993 Y115.128 Z0.35 F1799.7
G1 X7.993 Y113.714 Z0.35 F1799.7
G1 X9.772 Y111.936 Z0.35 F1799.7
G1 X9.996 Y111.095 Z0.35 F1799.7
G1 X10.564 Y109.872 Z0.35 F1799.7
G1 X10.899 Y109.394 Z0.35 F1799.7
G1 X7.993 Y112.3 Z0.35 F1799.7
G1 X7.993 Y110.886 Z0.35 F1799.7
G1 X19.201 Y99.677 Z0.35 F1799.7
G1 X18.615 Y99.551 Z0.35 F1799.7
G1 X17.961 Y99.504 Z0.35 F1799.7
G1 X7.993 Y109.471 Z0.35 F1799.7
G1 X7.992 Y108.734 Z0.35 F1799.7
G1 X7.938 Y108.469 Z0.35 F1799.7
G1 X7.78 Y108.271 Z0.35 F1799.7
G1 X16.594 Y99.456 Z0.35 F1799.7
G1 X15.18 Y99.456 Z0.35 F1799.7
G1 X6.578 Y108.058 Z0.35 F1799.7
G1 X5.164 Y108.058 Z0.35 F1799.7
G1 X13.766 Y99.456 Z0.35 F1799.7
G1 X12.352 Y99.456 Z0.35 F1799.7
G1 X3.75 Y108.058 Z0.35 F1799.7
G1 X2.336 Y108.058 Z0.35 F1799.7
G1 X10.938 Y99.456 Z0.35 F1799.7
G1 X9.523 Y99.456 Z0.35 F1799.7
G1 X0.921 Y108.058 Z0.35 F1799.7
G1 X-.493 Y108.058 Z0.35 F1799.7
G1 X5.079 Y102.486 Z0.35 F1799.7
G1 X4.627 Y102.804 Z0.35 F1799.7
G1 X3.895 Y103.145 Z0.35 F1799.7
G1 X3.114 Y103.354 Z0.35 F1799.7
G1 X2.766 Y103.385 Z0.35 F1799.7
G1 X-1.907 Y108.058 Z0.35 F1799.7
G1 X-2.807 Y108.058 Z0.35 F1799.7
G1 X-3.195 Y108.239 Z0.35 F1799.7
G1 X-3.399 Y108.626 Z0.35 F1799.7
M103
G1 X-3.805 Y108.626 Z0.35 F5400
G1 X-9.398 Y107.616 Z0.35 F5400
G1 X-9.6 Y107.265 Z0.35 F5400
M101
G1 X-12.908 Y110.573 Z0.35 F1799.7
G1 X-13.301 Y110.61 Z0.35 F1799.7
G1 X-13.843 Y110.762 Z0.35 F1799.7
G1 X-14.352 Y111.008 Z0.35 F1799.7
G1 X-14.788 Y111.327 Z0.35 F1799.7
G1 X-15.195 Y111.743 Z0.35 F1799.7
G1 X-15.496 Y112.191 Z0.35 F1799.7
G1 X-15.694 Y112.611 Z0.35 F1799.7
G1 X-15.893 Y113.318 Z0.35 F1799.7
G1 X-16.324 Y113.258 Z0.35 F1799.7
G1 X-16.324 Y112.575 Z0.35 F1799.7
G1 X-12.699 Y108.95 Z0.35 F1799.7
G1 X-12.961 Y108.909 Z0.35 F1799.7
G1 X-13.666 Y108.503 Z0.35 F1799.7
G1 X-16.324 Y111.161 Z0.35 F1799.7
G1 X-16.324 Y109.747 Z0.35 F1799.7
G1 X-14.564 Y107.987 Z0.35 F1799.7
G1 X-15.462 Y107.47 Z0.35 F1799.7
G1 X-16.324 Y108.332 Z0.35 F1799.7
G1 X-16.324 Y107.515 Z0.35 F1799.7
G1 X-16.378 Y107.294 Z0.35 F1799.7
G1 X-16.115 Y107.096 Z0.35 F1799.7
M103
G1 X-16.726 Y106.33 Z0.35 F5400
M101
G1 X-16.436 Y106.195 Z0.35 F1799.7
G1 X-16.436 Y105.616 Z0.35 F1799.7
G1 X-16.956 Y106.136 Z0.35 F1799.7
G1 X-17.493 Y105.681 Z0.35 F1799.7
G1 X-17.803 Y105.569 Z0.35 F1799.7
G1 X-16.436 Y104.202 Z0.35 F1799.7
G1 X-16.436 Y102.883 Z0.35 F1799.7
G1 X-16.345 Y102.697 Z0.35 F1799.7
G1 X-19.049 Y105.401 Z0.35 F1799.7
G1 X-19.098 Y105.401 Z0.35 F1799.7
G1 X-19.864 Y105.68 Z0.35 F1799.7
G1 X-20.496 Y106.209 Z0.35 F1799.7
G1 X-20.891 Y106.896 Z0.35 F1799.7
M103
G1 X-21.275 Y106.793 Z0.35 F5400
G1 X-16.77 Y102.41 Z0.35 F5400
G1 X-15.989 Y102.341 Z0.35 F5400
M101
G1 X-13.104 Y99.456 Z0.35 F1799.7
G1 X-11.69 Y99.456 Z0.35 F1799.7
G1 X-12.797 Y100.563 Z0.35 F1799.7
G1 X-12.581 Y100.563 Z0.35 F1799.7
G1 X-12.369 Y100.641 Z0.35 F1799.7
G1 X-11.793 Y100.973 Z0.35 F1799.7
G1 X-10.276 Y99.456 Z0.35 F1799.7
G1 X-8.861 Y99.456 Z0.35 F1799.7
G1 X-10.896 Y101.49 Z0.35 F1799.7
G1 X-9.998 Y102.007 Z0.35 F1799.7
G1 X-7.447 Y99.456 Z0.35 F1799.7
G1 X-6.033 Y99.456 Z0.35 F1799.7
G1 X-9.132 Y102.555 Z0.35 F1799.7
G1 X-8.972 Y102.889 Z0.35 F1799.7
G1 X-8.973 Y103.81 Z0.35 F1799.7
G1 X-4.619 Y99.456 Z0.35 F1799.7
G1 X-3.205 Y99.456 Z0.35 F1799.7
G1 X-8.975 Y105.226 Z0.35 F1799.7
G1 X-8.977 Y106.642 Z0.35 F1799.7
G1 X-2.222 Y99.887 Z0.35 F1799.7
G1 X-2.099 Y100.356 Z0.35 F1799.7
G1 X-1.832 Y100.912 Z0.35 F1799.7
G1 X-11.645 Y110.724 Z0.35 F1799.7
G1 X-11.055 Y111.01 Z0.35 F1799.7
G1 X-10.743 Y111.237 Z0.35 F1799.7
G1 X-1.273 Y101.767 Z0.35 F1799.7
G1 X-.7 Y102.34 Z0.35 F1799.7
G1 X-.542 Y102.45 Z0.35 F1799.7
G1 X-10.059 Y111.968 Z0.35 F1799.7
G1 X-9.909 Y112.189 Z0.35 F1799.7
G1 X-9.677 Y112.706 Z0.35 F1799.7
G1 X-9.62 Y112.943 Z0.35 F1799.7
G1 X0.342 Y102.98 Z0.35 F1799.7
G1 X0.692 Y103.144 Z0.35 F1799.7
G1 X1.401 Y103.335 Z0.35 F1799.7
G1 X-9.551 Y114.288 Z0.35 F1799.7
G1 X-9.676 Y114.799 Z0.35 F1799.7
G1 X-9.907 Y115.319 Z0.35 F1799.7
G1 X-10.233 Y115.79 Z0.35 F1799.7
G1 X-10.617 Y116.179 Z0.35 F1799.7
G1 X-11.059 Y116.5 Z0.35 F1799.7
G1 X-11.565 Y116.746 Z0.35 F1799.7
G1 X-12.109 Y116.9 Z0.35 F1799.7
G1 X-12.662 Y116.952 Z0.35 F1799.7
G1 X-13.214 Y116.913 Z0.35 F1799.7
G1 X-13.514 Y116.837 Z0.35 F1799.7
G1 X-16.324 Y119.646 Z0.35 F1799.7
G1 X-16.324 Y118.232 Z0.35 F1799.7
G1 X-14.49 Y116.398 Z0.35 F1799.7
G1 X-14.788 Y116.182 Z0.35 F1799.7
G1 X-15.232 Y115.726 Z0.35 F1799.7
G1 X-16.324 Y116.818 Z0.35 F1799.7
G1 X-16.324 Y114.241 Z0.35 F1799.7
G1 X-15.889 Y114.185 Z0.35 F1799.7
G1 X-15.727 Y114.802 Z0.35 F1799.7
G1 X-16.324 Y115.403 Z0.35 F1799.7
M103
G1 X-15.927 Y115.403 Z0.35 F5400
G1 X-14.982 Y116.47 Z0.35 F5400
G1 X-13.916 Y117.085 Z0.35 F5400
G1 X-12.134 Y117.31 Z0.35 F5400
G1 X-12.168 Y116.905 Z0.35 F5400
M101
G1 X-15.084 Y119.821 Z0.35 F1799.7
G1 X-12.981 Y118.607 Z0.35 F1799.7
G1 X-12.752 Y118.554 Z0.35 F1799.7
G1 X-12.449 Y118.599 Z0.35 F1799.7
G1 X-3.4 Y109.551 Z0.35 F1799.7
G1 X-3.4 Y110.966 Z0.35 F1799.7
G1 X-11.548 Y119.114 Z0.35 F1799.7
G1 X-10.653 Y119.633 Z0.35 F1799.7
G1 X-3.401 Y112.38 Z0.35 F1799.7
G1 X-3.402 Y113.795 Z0.35 F1799.7
G1 X-9.757 Y120.151 Z0.35 F1799.7
G1 X-9.236 Y120.451 Z0.35 F1799.7
G1 X-9.045 Y120.681 Z0.35 F1799.7
G1 X-9.007 Y120.815 Z0.35 F1799.7
G1 X-3.402 Y115.21 Z0.35 F1799.7
G1 X-3.403 Y116.625 Z0.35 F1799.7
G1 X-8.973 Y122.195 Z0.35 F1799.7
G1 X-8.973 Y123.609 Z0.35 F1799.7
G1 X-3.403 Y118.039 Z0.35 F1799.7
G1 X-3.403 Y118.826 Z0.35 F1799.7
G1 X-3.293 Y119.152 Z0.35 F1799.7
G1 X-3.186 Y119.236 Z0.35 F1799.7
G1 X-5.273 Y121.323 Z0.35 F1799.7
M103
G1 X-5.285 Y120.922 Z0.35 F5400
G1 X-6.497 Y121.279 Z0.35 F5400
G1 X-7.601 Y122.268 Z0.35 F5400
G1 X-8.574 Y124.587 Z0.35 F5400
G1 X-8.974 Y124.587 Z0.35 F5400
M101
G1 X-9.05 Y124.83 Z0.35 F1799.7
G1 X-9.221 Y125.053 Z0.35 F1799.7
G1 X-12.05 Y126.686 Z0.35 F1799.7
G1 X-13.419 Y128.056 Z0.35 F1799.7
G1 X-14.834 Y128.056 Z0.35 F1799.7
G1 X-13.425 Y126.647 Z0.35 F1799.7
G1 X-14.322 Y126.129 Z0.35 F1799.7
G1 X-16.248 Y128.056 Z0.35 F1799.7
G1 X-17.662 Y128.056 Z0.35 F1799.7
G1 X-15.218 Y125.612 Z0.35 F1799.7
G1 X-16.116 Y125.095 Z0.35 F1799.7
G1 X-19.076 Y128.056 Z0.35 F1799.7
G1 X-20.491 Y128.056 Z0.35 F1799.7
G1 X-16.436 Y124.001 Z0.35 F1799.7
G1 X-16.436 Y122.587 Z0.35 F1799.7
G1 X-21.905 Y128.056 Z0.35 F1799.7
G1 X-22.004 Y128.056 Z0.35 F1799.7
G1 X-22.004 Y126.74 Z0.35 F1799.7
G1 X-16.486 Y121.223 Z0.35 F1799.7
G1 X-16.763 Y121.121 Z0.35 F1799.7
G1 X-17.163 Y121.593 Z0.35 F1799.7
G1 X-17.78 Y121.947 Z0.35 F1799.7
G1 X-18.288 Y122.108 Z0.35 F1799.7
G1 X-18.784 Y122.107 Z0.35 F1799.7
G1 X-22.004 Y125.326 Z0.35 F1799.7
G1 X-22.004 Y123.912 Z0.35 F1799.7
G1 X-19.894 Y121.802 Z0.35 F1799.7
G1 X-20.493 Y121.3 Z0.35 F1799.7
G1 X-20.608 Y121.102 Z0.35 F1799.7
G1 X-22.004 Y122.498 Z0.35 F1799.7
G1 X-22.004 Y121.084 Z0.35 F1799.7
G1 X-21.036 Y120.116 Z0.35 F1799.7
G1 X-21.036 Y118.702 Z0.35 F1799.7
G1 X-22.004 Y119.669 Z0.35 F1799.7
G1 X-22.004 Y118.255 Z0.35 F1799.7
G1 X-21.036 Y117.288 Z0.35 F1799.7
G1 X-21.036 Y115.874 Z0.35 F1799.7
G1 X-22.004 Y116.841 Z0.35 F1799.7
G1 X-22.004 Y115.427 Z0.35 F1799.7
G1 X-21.036 Y114.459 Z0.35 F1799.7
G1 X-21.036 Y113.045 Z0.35 F1799.7
G1 X-22.004 Y114.012 Z0.35 F1799.7
G1 X-22.004 Y112.598 Z0.35 F1799.7
G1 X-21.036 Y111.631 Z0.35 F1799.7
G1 X-21.036 Y110.217 Z0.35 F1799.7
G1 X-22.004 Y111.184 Z0.35 F1799.7
G1 X-22.004 Y109.77 Z0.35 F1799.7
G1 X-21.036 Y108.803 Z0.35 F1799.7
G1 X-21.036 Y107.514 Z0.35 F1799.7
G1 X-20.998 Y107.35 Z0.35 F1799.7
G1 X-22.004 Y108.356 Z0.35 F1799.7
G1 X-22.004 Y106.941 Z0.35 F1799.7
G1 X-14.518 Y99.456 Z0.35 F1799.7
G1 X-15.933 Y99.456 Z0.35 F1799.7
G1 X-22.004 Y105.527 Z0.35 F1799.7
G1 X-22.004 Y104.113 Z0.35 F1799.7
G1 X-17.347 Y99.456 Z0.35 F1799.7
G1 X-18.761 Y99.456 Z0.35 F1799.7
G1 X-22.004 Y102.699 Z0.35 F1799.7
G1 X-22.004 Y101.285 Z0.35 F1799.7
G1 X-20.175 Y99.456 Z0.35 F1799.7
G1 X-21.589 Y99.456 Z0.35 F1799.7
G1 X-22.004 Y99.87 Z0.35 F1799.7
G1 X-22.004 Y99.456 Z0.35 F1799.7
M103
G1 X-21.635 Y99.826 Z0.35 F5400
G1 X-12.705 Y100.061 Z0.35 F5400
G1 X-8.64 Y102.41 Z0.35 F5400
G1 X-8.048 Y124.173 Z0.35 F5400
G1 X-7.495 Y125.551 Z0.35 F5400
G1 X-5.426 Y126.999 Z0.35 F5400
G1 X-3.769 Y127.736 Z0.35 F5400
G1 X-3.52 Y128.056 Z0.35 F5400
M101
G1 X-3.126 Y127.662 Z0.35 F1799.7
G1 X-4.113 Y127.235 Z0.35 F1799.7
G1 X-4.934 Y128.056 Z0.35 F1799.7
G1 X-6.348 Y128.056 Z0.35 F1799.7
G1 X-5.09 Y126.797 Z0.35 F1799.7
G1 X-5.988 Y126.281 Z0.35 F1799.7
G1 X-7.763 Y128.056 Z0.35 F1799.7
G1 X-9.177 Y128.056 Z0.35 F1799.7
G1 X-6.853 Y125.732 Z0.35 F1799.7
G1 X-7.222 Y125.342 Z0.35 F1799.7
G1 X-7.469 Y124.934 Z0.35 F1799.7
G1 X-10.591 Y128.056 Z0.35 F1799.7
G1 X-12.005 Y128.056 Z0.35 F1799.7
G1 X-7.728 Y123.778 Z0.35 F1799.7
G1 X-7.647 Y123.209 Z0.35 F1799.7
G1 X-7.502 Y122.798 Z0.35 F1799.7
G1 X-7.288 Y122.416 Z0.35 F1799.7
G1 X-7.014 Y122.079 Z0.35 F1799.7
G1 X-6.705 Y121.81 Z0.35 F1799.7
G1 X-6.3 Y121.566 Z0.35 F1799.7
G1 X-5.92 Y121.417 Z0.35 F1799.7
G1 X-5.536 Y121.333 Z0.35 F1799.7
G1 X-5.065 Y121.315 Z0.35 F1799.7
G1 X-4.672 Y121.369 Z0.35 F1799.7
G1 X-4.095 Y121.56 Z0.35 F1799.7
G1 X-1.991 Y119.456 Z0.35 F1799.7
G1 X-.577 Y119.456 Z0.35 F1799.7
G1 X-3.198 Y122.076 Z0.35 F1799.7
G1 X-2.561 Y122.434 Z0.35 F1799.7
G1 X-2.263 Y122.556 Z0.35 F1799.7
G1 X0.837 Y119.456 Z0.35 F1799.7
G1 X2.251 Y119.456 Z0.35 F1799.7
G1 X-1.256 Y122.963 Z0.35 F1799.7
G1 X-.14 Y123.261 Z0.35 F1799.7
G1 X3.666 Y119.456 Z0.35 F1799.7
G1 X5.08 Y119.456 Z0.35 F1799.7
G1 X1.08 Y123.456 Z0.35 F1799.7
G1 X1.582 Y123.52 Z0.35 F1799.7
G1 X2.43 Y123.52 Z0.35 F1799.7
G1 X6.494 Y119.456 Z0.35 F1799.7
G1 X7.323 Y119.456 Z0.35 F1799.7
G1 X7.698 Y119.337 Z0.35 F1799.7
G1 X7.886 Y119.138 Z0.35 F1799.7
G1 X7.993 Y118.785 Z0.35 F1799.7
M103
G1 X8.395 Y118.785 Z0.35 F5400
G1 X11.883 Y121.874 Z0.35 F5400
G1 X12.582 Y123.182 Z0.35 F5400
G1 X12.536 Y124.661 Z0.35 F5400
G1 X11.754 Y125.92 Z0.35 F5400
G1 X10.017 Y126.999 Z0.35 F5400
G1 X8.359 Y127.736 Z0.35 F5400
G1 X7.728 Y127.658 Z0.35 F5400
M101
G1 X7.807 Y128.042 Z0.35 F1799.7
M103
G1 X8.359 Y127.736 Z0.35 F5400
G1 X22.106 Y126.241 Z0.35 F5400
G1 X22.316 Y126.577 Z0.35 F5400
M101
G1 X23.382 Y125.778 Z0.35 F1799.7
G1 X24.318 Y124.842 Z0.35 F1799.7
G1 X25.119 Y123.779 Z0.35 F1799.7
G1 X25.504 Y123.073 Z0.35 F1799.7
G1 X21.618 Y126.959 Z0.35 F1799.7
G1 X21.15 Y127.215 Z0.35 F1799.7
G1 X19.923 Y127.674 Z0.35 F1799.7
G1 X19.369 Y127.794 Z0.35 F1799.7
G1 X26.332 Y120.831 Z0.35 F1799.7
G1 X26.497 Y120.064 Z0.35 F1799.7
G1 X26.56 Y119.189 Z0.35 F1799.7
G1 X17.727 Y128.022 Z0.35 F1799.7
G1 X17.263 Y128.056 Z0.35 F1799.7
G1 X16.278 Y128.056 Z0.35 F1799.7
G1 X26.592 Y117.742 Z0.35 F1799.7
G1 X26.592 Y116.328 Z0.35 F1799.7
G1 X14.864 Y128.056 Z0.35 F1799.7
G1 X13.45 Y128.056 Z0.35 F1799.7
G1 X20.89 Y120.616 Z0.35 F1799.7
M103
G1 X21.058 Y120.978 Z0.35 F5400
G1 X20.067 Y121.373 Z0.35 F5400
G1 X18.702 Y121.74 Z0.35 F5400
G1 X17.295 Y121.863 Z0.35 F5400
G1 X15.889 Y121.74 Z0.35 F5400
G1 X14.523 Y121.373 Z0.35 F5400
G1 X13.242 Y120.776 Z0.35 F5400
G1 X12.085 Y119.966 Z0.35 F5400
G1 X11.085 Y118.966 Z0.35 F5400
G1 X10.275 Y117.81 Z0.35 F5400
G1 X9.677 Y116.528 Z0.35 F5400
G1 X9.311 Y115.162 Z0.35 F5400
G1 X8.323 Y107.728 Z0.35 F5400
G1 X2.196 Y103.821 Z0.35 F5400
G1 X2.27 Y102.974 Z0.35 F5400
;TYPE:WALL-OUTER
M108 S15.6
M101
G1 X3.032 Y102.911 Z0.35 F1200.1
G1 X3.718 Y102.726 Z0.35 F1200.1
G1 X4.386 Y102.419 Z0.35 F1200.1
G1 X5.012 Y101.986 Z0.35 F1200.1
G1 X5.533 Y101.464 Z0.35 F1200.1
G1 X5.938 Y100.883 Z0.35 F1200.1
G1 X6.251 Y100.222 Z0.35 F1200.1
G1 X6.446 Y99.513 Z0.35 F1200.1
G1 X6.494 Y99.006 Z0.35 F1200.1
G1 X17.279 Y99.006 Z0.35 F1200.1
G1 X18.68 Y99.105 Z0.35 F1200.1
G1 X20.049 Y99.401 Z0.35 F1200.1
G1 X21.339 Y99.884 Z0.35 F1200.1
G1 X22.56 Y100.547 Z0.35 F1200.1
G1 X23.683 Y101.394 Z0.35 F1200.1
G1 X24.654 Y102.365 Z0.35 F1200.1
G1 X25.501 Y103.488 Z0.35 F1200.1
G1 X26.167 Y104.712 Z0.35 F1200.1
G1 X26.647 Y105.999 Z0.35 F1200.1
G1 X26.943 Y107.376 Z0.35 F1200.1
G1 X27.042 Y108.761 Z0.35 F1200.1
G1 X27.042 Y108.761 Z0.35 F1200.1
G1 X27.042 Y118.759 Z0.35 F1200.1
G1 X26.943 Y120.132 Z0.35 F1200.1
G1 X26.647 Y121.509 Z0.35 F1200.1
G1 X26.167 Y122.796 Z0.35 F1200.1
G1 X25.501 Y124.02 Z0.35 F1200.1
G1 X24.654 Y125.143 Z0.35 F1200.1
G1 X23.683 Y126.114 Z0.35 F1200.1
G1 X22.56 Y126.957 Z0.35 F1200.1
G1 X21.339 Y127.624 Z0.35 F1200.1
G1 X20.049 Y128.107 Z0.35 F1200.1
G1 X18.68 Y128.403 Z0.35 F1200.1
G1 X17.278 Y128.506 Z0.35 F1200.1
G1 X7.838 Y128.506 Z0.35 F1200.1
G1 X6.941 Y128.476 Z0.35 F1130
G1 X6.043 Y128.445 Z0.35 F1011.8
G1 X5.967 Y128.433 Z0.35 F944.9
G1 X5.044 Y128.472 Z0.35 F988.5
G1 X4.12 Y128.512 Z0.35 F1136.4
G1 X2.317 Y128.538 Z0.35 F1296
G1 X0.468 Y128.512 Z0.35 F1298.8
G1 X-.455 Y128.472 Z0.35 F1138.6
G1 X-1.379 Y128.432 Z0.35 F990.1
G1 X-1.455 Y128.444 Z0.35 F946.4
G1 X-2.35 Y128.475 Z0.35 F1013.6
G1 X-3.246 Y128.506 Z0.35 F1132.1
G1 X-22.454 Y128.506 Z0.35 F1200.1
G1 X-22.454 Y99.006 Z0.35 F1200.1
G1 X-1.902 Y99.006 Z0.35 F1200.1
G1 X-1.862 Y99.47 Z0.35 F1200.1
G1 X-1.678 Y100.18 Z0.35 F1200.1
G1 X-1.371 Y100.846 Z0.35 F1200.1
G1 X-.939 Y101.467 Z0.35 F1200.1
G1 X-.409 Y101.995 Z0.35 F1200.1
G1 X0.164 Y102.397 Z0.35 F1200.1
G1 X0.866 Y102.726 Z0.35 F1200.1
G1 X1.578 Y102.914 Z0.35 F1200.1
G1 X2.27 Y102.974 Z0.35 F1200.1
M103
G1 X2.022 Y102.953 Z0.35 F5400
G1 X1.949 Y103.799 Z0.35 F5400
G1 X-12.188 Y109.227 Z0.35 F5400
G1 X-12.613 Y108.49 Z0.35 F5400
M101
G1 X-12.613 Y108.49 Z0.35 F1200.1
G1 X-9.52 Y106.703 Z0.35 F1200.1
G1 X-9.424 Y106.542 Z0.35 F1200.1
G1 X-9.427 Y102.954 Z0.35 F1200.1
G1 X-9.494 Y102.818 Z0.35 F1200.1
G1 X-12.631 Y101.009 Z0.35 F1200.1
G1 X-12.777 Y101.009 Z0.35 F1200.1
G1 X-15.861 Y102.787 Z0.35 F1200.1
G1 X-15.985 Y102.92 Z0.35 F1200.1
G1 X-15.986 Y106.504 Z0.35 F1200.1
G1 X-15.929 Y106.682 Z0.35 F1200.1
G1 X-12.794 Y108.49 Z0.35 F1200.1
G1 X-12.613 Y108.49 Z0.35 F1200.1
M103
G1 X-12.794 Y108.49 Z0.35 F5400
G1 X-12.853 Y108.456 Z0.35 F5400
G1 X-13.28 Y109.193 Z0.35 F5400
G1 X-10.428 Y111.042 Z0.35 F5400
G1 X-9.637 Y111.983 Z0.35 F5400
G1 X-9.215 Y113.143 Z0.35 F5400
G1 X-9.215 Y114.369 Z0.35 F5400
G1 X-9.637 Y115.529 Z0.35 F5400
G1 X-10.428 Y116.47 Z0.35 F5400
G1 X-11.388 Y117.036 Z0.35 F5400
G1 X-12.61 Y117.352 Z0.35 F5400
G1 X-12.683 Y116.502 Z0.35 F5400
M101
G1 X-12.205 Y116.46 Z0.35 F1200.1
G1 X-11.783 Y116.346 Z0.35 F1200.1
G1 X-11.346 Y116.147 Z0.35 F1200.1
G1 X-10.956 Y115.877 Z0.35 F1200.1
G1 X-10.586 Y115.51 Z0.35 F1200.1
G1 X-10.332 Y115.154 Z0.35 F1200.1
G1 X-10.109 Y114.675 Z0.35 F1200.1
G1 X-9.997 Y114.236 Z0.35 F1200.1
G1 X-9.954 Y113.756 Z0.35 F1200.1
G1 X-10.001 Y113.253 Z0.35 F1200.1
G1 X-10.109 Y112.833 Z0.35 F1200.1
G1 X-10.309 Y112.397 Z0.35 F1200.1
G1 X-10.579 Y112.007 Z0.35 F1200.1
G1 X-10.923 Y111.659 Z0.35 F1200.1
G1 X-11.308 Y111.383 Z0.35 F1200.1
G1 X-11.782 Y111.162 Z0.35 F1200.1
G1 X-11.782 Y111.162 Z0.35 F1200.1
G1 X-12.243 Y111.042 Z0.35 F1200.1
G1 X-12.683 Y111.006 Z0.35 F1200.1
G1 X-13.161 Y111.042 Z0.35 F1200.1
G1 X-13.625 Y111.162 Z0.35 F1200.1
G1 X-14.101 Y111.383 Z0.35 F1200.1
G1 X-14.452 Y111.631 Z0.35 F1200.1
G1 X-14.83 Y112.009 Z0.35 F1200.1
G1 X-15.095 Y112.397 Z0.35 F1200.1
G1 X-15.279 Y112.789 Z0.35 F1200.1
G1 X-15.406 Y113.251 Z0.35 F1200.1
G1 X-15.454 Y113.756 Z0.35 F1200.1
G1 X-15.411 Y114.235 Z0.35 F1200.1
G1 X-15.294 Y114.677 Z0.35 F1200.1
G1 X-15.095 Y115.114 Z0.35 F1200.1
G1 X-14.829 Y115.5 Z0.35 F1200.1
G1 X-14.485 Y115.849 Z0.35 F1200.1
G1 X-14.101 Y116.125 Z0.35 F1200.1
G1 X-13.666 Y116.331 Z0.35 F1200.1
G1 X-13.161 Y116.466 Z0.35 F1200.1
G1 X-12.683 Y116.502 Z0.35 F1200.1
M103
G1 X-12.932 Y116.484 Z0.35 F5400
G1 X-13.006 Y117.333 Z0.35 F5400
G1 X-8.64 Y120.41 Z0.35 F5400
G1 X-8.64 Y125.102 Z0.35 F5400
G1 X-12.705 Y127.451 Z0.35 F5400
G1 X-16.77 Y125.102 Z0.35 F5400
G1 X-18.392 Y122.509 Z0.35 F5400
G1 X-18.392 Y121.658 Z0.35 F5400
M101
G1 X-17.991 Y121.549 Z0.35 F1200.1
G1 X-17.452 Y121.239 Z0.35 F1200.1
G1 X-17.03 Y120.731 Z0.35 F1200.1
G1 X-16.774 Y120.042 Z0.35 F1200.1
G1 X-16.774 Y107.5 Z0.35 F1200.1
G1 X-16.774 Y107.5 Z0.35 F1200.1
G1 X-16.891 Y107.067 Z0.35 F1200.1
G1 X-17.221 Y106.501 Z0.35 F1200.1
G1 X-17.722 Y106.077 Z0.35 F1200.1
G1 X-18.344 Y105.85 Z0.35 F1200.1
G1 X-19.016 Y105.85 Z0.35 F1200.1
G1 X-19.636 Y106.076 Z0.35 F1200.1
G1 X-20.143 Y106.5 Z0.35 F1200.1
G1 X-20.453 Y107.039 Z0.35 F1200.1
G1 X-20.586 Y107.501 Z0.35 F1200.1
G1 X-20.583 Y120.016 Z0.35 F1200.1
G1 X-20.47 Y120.44 Z0.35 F1200.1
G1 X-20.143 Y121.008 Z0.35 F1200.1
G1 X-19.636 Y121.432 Z0.35 F1200.1
G1 X-19.016 Y121.658 Z0.35 F1200.1
G1 X-18.392 Y121.658 Z0.35 F1200.1
M103
G1 X-18.642 Y121.658 Z0.35 F5400
G1 X-18.642 Y122.509 Z0.35 F5400
G1 X-16.77 Y125.102 Z0.35 F5400
G1 X-12.705 Y127.451 Z0.35 F5400
G1 X-12.631 Y126.503 Z0.35 F5400
M101
G1 X-9.504 Y124.69 Z0.35 F1200.1
G1 X-9.423 Y124.532 Z0.35 F1200.1
G1 X-9.422 Y120.935 Z0.35 F1200.1
G1 X-9.519 Y120.805 Z0.35 F1200.1
G1 X-9.519 Y120.805 Z0.35 F1200.1
G1 X-12.613 Y119.022 Z0.35 F1200.1
G1 X-12.794 Y119.022 Z0.35 F1200.1
G1 X-15.876 Y120.796 Z0.35 F1200.1
G1 X-15.983 Y120.933 Z0.35 F1200.1
G1 X-15.983 Y124.548 Z0.35 F1200.1
G1 X-15.913 Y124.692 Z0.35 F1200.1
G1 X-12.777 Y126.503 Z0.35 F1200.1
G1 X-12.631 Y126.503 Z0.35 F1200.1
M103
G1 X-12.777 Y126.503 Z0.35 F5400
G1 X-12.867 Y126.451 Z0.35 F5400
G1 X-13.293 Y127.186 Z0.35 F5400
G1 X-7.269 Y125.893 Z0.35 F5400
G1 X-6.636 Y125.326 Z0.35 F5400
M101
G1 X-6.354 Y125.55 Z0.35 F1200.1
G1 X-4.765 Y126.465 Z0.35 F1200.1
G1 X-3.083 Y127.19 Z0.35 F1200.1
G1 X-2.22 Y127.48 Z0.35 F1132.1
G1 X-1.357 Y127.771 Z0.35 F1013.6
G1 X-1.324 Y127.791 Z0.35 F946.4
G1 X-.436 Y127.906 Z0.35 F988.5
G1 X0.453 Y128.022 Z0.35 F1134.3
G1 X2.279 Y128.102 Z0.35 F1293.2
G1 X4.135 Y128.022 Z0.35 F1293.2
G1 X5.023 Y127.907 Z0.35 F1132.1
G1 X5.912 Y127.791 Z0.35 F986.9
G1 X5.945 Y127.77 Z0.35 F944.9
G1 X6.81 Y127.48 Z0.35 F1011.8
G1 X7.675 Y127.19 Z0.35 F1130
G1 X9.331 Y126.478 Z0.35 F1200.1
G1 X10.917 Y125.569 Z0.35 F1200.1
G1 X11.191 Y125.357 Z0.35 F1200.1
G1 X11.438 Y125.088 Z0.35 F1200.1
G1 X11.63 Y124.783 Z0.35 F1200.1
G1 X11.768 Y124.456 Z0.35 F1200.1
G1 X11.849 Y124.075 Z0.35 F1200.1
G1 X11.86 Y123.694 Z0.35 F1200.1
G1 X11.808 Y123.357 Z0.35 F1200.1
G1 X11.707 Y123.039 Z0.35 F1200.1
G1 X11.522 Y122.692 Z0.35 F1200.1
G1 X11.297 Y122.411 Z0.35 F1200.1
G1 X11.052 Y122.189 Z0.35 F1200.1
G1 X10.723 Y121.981 Z0.35 F1200.1
G1 X10.374 Y121.847 Z0.35 F1200.1
G1 X10.045 Y121.776 Z0.35 F1200.1
G1 X9.657 Y121.768 Z0.35 F1200.1
G1 X9.341 Y121.812 Z0.35 F1200.1
G1 X8.957 Y121.934 Z0.35 F1200.1
G1 X7.354 Y122.838 Z0.35 F1200.1
G1 X5.972 Y123.398 Z0.35 F1200.1
G1 X4.531 Y123.778 Z0.35 F1200.1
G1 X3.035 Y123.97 Z0.35 F1200.1
G1 X1.552 Y123.97 Z0.35 F1200.1
G1 X0.053 Y123.778 Z0.35 F1200.1
G1 X-1.38 Y123.398 Z0.35 F1200.1
G1 X-2.763 Y122.838 Z0.35 F1200.1
G1 X-4.329 Y121.954 Z0.35 F1200.1
G1 X-4.713 Y121.822 Z0.35 F1200.1
G1 X-5.09 Y121.766 Z0.35 F1200.1
G1 X-5.448 Y121.775 Z0.35 F1200.1
G1 X-5.786 Y121.847 Z0.35 F1200.1
G1 X-6.117 Y121.975 Z0.35 F1200.1
G1 X-6.117 Y121.975 Z0.35 F1200.1
G1 X-6.458 Y122.188 Z0.35 F1200.1
G1 X-6.73 Y122.434 Z0.35 F1200.1
G1 X-6.949 Y122.721 Z0.35 F1200.1
G1 X-7.097 Y122.997 Z0.35 F1200.1
G1 X-7.214 Y123.336 Z0.35 F1200.1
G1 X-7.268 Y123.697 Z0.35 F1200.1
G1 X-7.259 Y124.092 Z0.35 F1200.1
G1 X-7.189 Y124.414 Z0.35 F1200.1
G1 X-7.061 Y124.745 Z0.35 F1200.1
G1 X-6.86 Y125.071 Z0.35 F1200.1
G1 X-6.636 Y125.326 Z0.35 F1200.1
M103
G1 X-6.801 Y125.138 Z0.35 F5400
G1 X-7.436 Y125.707 Z0.35 F5400
G1 X-7.946 Y124.661 Z0.35 F5400
G1 X-7.992 Y123.182 Z0.35 F5400
G1 X-7.293 Y121.874 Z0.35 F5400
G1 X-6.032 Y121.093 Z0.35 F5400
G1 X7.359 Y119.856 Z0.35 F5400
G1 X7.359 Y119.006 Z0.35 F5400
M101
G1 X7.501 Y118.894 Z0.35 F1200.1
G1 X7.543 Y118.756 Z0.35 F1200.1
G1 X7.543 Y118.756 Z0.35 F1200.1
G1 X7.543 Y108.681 Z0.35 F1200.1
G1 X7.441 Y108.554 Z0.35 F1200.1
G1 X7.32 Y108.507 Z0.35 F1200.1
G1 X-2.783 Y108.507 Z0.35 F1200.1
G1 X-2.907 Y108.609 Z0.35 F1200.1
G1 X-2.952 Y108.718 Z0.35 F1200.1
G1 X-2.954 Y118.775 Z0.35 F1200.1
G1 X-2.851 Y118.959 Z0.35 F1200.1
G1 X-2.704 Y119.006 Z0.35 F1200.1
G1 X7.359 Y119.006 Z0.35 F1200.1
M103
G1 X7.109 Y119.006 Z0.35 F5400
G1 X7.109 Y119.856 Z0.35 F5400
G1 X15.889 Y121.74 Z0.35 F5400
G1 X17.196 Y121.914 Z0.35 F5400
G1 X17.27 Y121.066 Z0.35 F5400
M101
G1 X18.546 Y120.958 Z0.35 F1200.1
G1 X19.818 Y120.619 Z0.35 F1200.1
G1 X20.934 Y120.099 Z0.35 F1200.1
G1 X21.976 Y119.373 Z0.35 F1200.1
G1 X22.907 Y118.444 Z0.35 F1200.1
G1 X23.617 Y117.432 Z0.35 F1200.1
G1 X24.159 Y116.278 Z0.35 F1200.1
G1 X24.159 Y116.278 Z0.35 F1200.1
G1 X24.495 Y115.028 Z0.35 F1200.1
G1 X24.606 Y113.756 Z0.35 F1200.1
G1 X24.498 Y112.502 Z0.35 F1200.1
G1 X24.174 Y111.271 Z0.35 F1200.1
G1 X23.639 Y110.114 Z0.35 F1200.1
G1 X22.913 Y109.072 Z0.35 F1200.1
G1 X21.979 Y108.137 Z0.35 F1200.1
G1 X20.972 Y107.431 Z0.35 F1200.1
G1 X19.818 Y106.889 Z0.35 F1200.1
G1 X18.556 Y106.551 Z0.35 F1200.1
G1 X17.314 Y106.442 Z0.35 F1200.1
G1 X16.02 Y106.553 Z0.35 F1200.1
G1 X14.811 Y106.874 Z0.35 F1200.1
G1 X13.654 Y107.409 Z0.35 F1200.1
G1 X12.594 Y108.148 Z0.35 F1200.1
G1 X11.703 Y109.039 Z0.35 F1200.1
G1 X10.971 Y110.076 Z0.35 F1200.1
G1 X10.429 Y111.23 Z0.35 F1200.1
G1 X10.09 Y112.502 Z0.35 F1200.1
G1 X9.982 Y113.756 Z0.35 F1200.1
G1 X10.093 Y115.028 Z0.35 F1200.1
G1 X10.414 Y116.237 Z0.35 F1200.1
G1 X10.949 Y117.394 Z0.35 F1200.1
G1 X11.683 Y118.447 Z0.35 F1200.1
G1 X12.601 Y119.365 Z0.35 F1200.1
G1 X13.645 Y120.095 Z0.35 F1200.1
G1 X14.795 Y120.629 Z0.35 F1200.1
G1 X16.034 Y120.957 Z0.35 F1200.1
G1 X17.27 Y121.066 Z0.35 F1200.1
M103
G1 X17.022 Y121.045 Z0.35 F5400
G1 X16.913 Y122.291 Z0.35 F5400
;MESH:NONMESH
G1 X16.913 Y122.291 Z0.6 F600
G1 X16.913 Y122.291 Z0.6 F5400
G1 X10.135 Y120.991 Z0.6 F5400
G1 X-5.544 Y120.991 Z0.6 F5400
G1 X-6.919 Y121.541 Z0.6 F5400
G1 X-7.837 Y122.706 Z0.6 F5400
G1 X-8.048 Y124.173 Z0.6 F5400
G1 X-7.495 Y125.551 Z0.6 F5400
G1 X-6.308 Y126.493 Z0.6 F5400
G1 X-4.114 Y127.673 Z0.6 F5400
G1 X-3.955 Y127.304 Z0.6 F5400
;TIME_ELAPSED:169.844042
;LAYER:2
;TYPE:FILL
;MESH:test_job.STL
M108 S31.2
M101
G1 X-3.137 Y127.657 Z0.6 F2400.1
G1 X-3.217 Y128.042 Z0.6 F2400.1
G1 X-3.955 Y127.304 Z0.6 F2400.1
G1 X-3.955 Y127.304 Z0.6 F2400.1
M103
G1 X-4.114 Y127.673 Z0.6 F7200
G1 X-5.178 Y127.21 Z0.6 F7200
G1 X-4.978 Y126.862 Z0.6 F7200
M101
G1 X-6.563 Y125.951 Z0.6 F2400.1
G1 X-6.89 Y125.705 Z0.6 F2400.1
G1 X-7.222 Y125.342 Z0.6 F2400.1
G1 X-7.473 Y124.925 Z0.6 F2400.1
G1 X-7.625 Y124.522 Z0.6 F2400.1
G1 X-7.704 Y124.16 Z0.6 F2400.1
G1 X-7.719 Y123.716 Z0.6 F2400.1
G1 X-7.647 Y123.209 Z0.6 F2400.1
G1 X-7.502 Y122.798 Z0.6 F2400.1
G1 X-7.338 Y122.506 Z0.6 F2400.1
G1 X-8.999 Y120.845 Z0.6 F2400.1
M103
G1 X-8.574 Y120.845 Z0.6 F7200
G1 X-8.099 Y123.504 Z0.6 F7200
G1 X-7.697 Y123.562 Z0.6 F7200
M101
G1 X-8.974 Y122.285 Z0.6 F2400.1
G1 X-8.974 Y123.699 Z0.6 F2400.1
G1 X-4.617 Y128.056 Z0.6 F2400.1
G1 X-6.032 Y128.056 Z0.6 F2400.1
G1 X-9.14 Y124.947 Z0.6 F2400.1
G1 X-9.221 Y125.053 Z0.6 F2400.1
G1 X-9.998 Y125.503 Z0.6 F2400.1
G1 X-7.446 Y128.056 Z0.6 F2400.1
G1 X-8.86 Y128.056 Z0.6 F2400.1
G1 X-10.895 Y126.021 Z0.6 F2400.1
G1 X-11.792 Y126.538 Z0.6 F2400.1
G1 X-10.274 Y128.056 Z0.6 F2400.1
G1 X-11.688 Y128.056 Z0.6 F2400.1
G1 X-12.795 Y126.949 Z0.6 F2400.1
G1 X-12.903 Y126.949 Z0.6 F2400.1
G1 X-15.991 Y125.167 Z0.6 F2400.1
G1 X-13.103 Y128.056 Z0.6 F2400.1
G1 X-14.517 Y128.056 Z0.6 F2400.1
G1 X-22.004 Y120.569 Z0.6 F2400.1
G1 X-22.004 Y121.983 Z0.6 F2400.1
G1 X-15.931 Y128.056 Z0.6 F2400.1
G1 X-17.345 Y128.056 Z0.6 F2400.1
G1 X-22.004 Y123.397 Z0.6 F2400.1
G1 X-22.004 Y124.811 Z0.6 F2400.1
G1 X-18.76 Y128.056 Z0.6 F2400.1
G1 X-20.174 Y128.056 Z0.6 F2400.1
G1 X-22.004 Y126.226 Z0.6 F2400.1
G1 X-22.004 Y127.64 Z0.6 F2400.1
G1 X-21.588 Y128.056 Z0.6 F2400.1
G1 X-22.004 Y128.056 Z0.6 F2400.1
M103
G1 X-21.635 Y127.686 Z0.6 F7200
G1 X-16.836 Y124.815 Z0.6 F7200
G1 X-16.343 Y124.815 Z0.6 F7200
M101
G1 X-19.051 Y122.107 Z0.6 F2400.1
M103
G1 X-19.051 Y122.509 Z0.6 F7200
G1 X-17.715 Y122.302 Z0.6 F7200
G1 X-16.77 Y121.646 Z0.6 F7200
G1 X-16.436 Y121.242 Z0.6 F7200
M101
G1 X-16.763 Y121.121 Z0.6 F2400.1
G1 X-16.968 Y121.362 Z0.6 F2400.1
G1 X-16.436 Y121.894 Z0.6 F2400.1
G1 X-16.436 Y123.308 Z0.6 F2400.1
G1 X-17.793 Y121.951 Z0.6 F2400.1
G1 X-18.288 Y122.108 Z0.6 F2400.1
G1 X-19.097 Y122.107 Z0.6 F2400.1
G1 X-19.864 Y121.827 Z0.6 F2400.1
G1 X-20.493 Y121.3 Z0.6 F2400.1
G1 X-20.855 Y120.673 Z0.6 F2400.1
G1 X-21.012 Y120.147 Z0.6 F2400.1
G1 X-22.004 Y119.155 Z0.6 F2400.1
G1 X-22.004 Y117.74 Z0.6 F2400.1
G1 X-21.036 Y118.708 Z0.6 F2400.1
G1 X-21.036 Y117.293 Z0.6 F2400.1
G1 X-22.004 Y116.326 Z0.6 F2400.1
G1 X-22.004 Y114.912 Z0.6 F2400.1
G1 X-21.036 Y115.879 Z0.6 F2400.1
G1 X-21.036 Y114.465 Z0.6 F2400.1
G1 X-22.004 Y113.498 Z0.6 F2400.1
G1 X-22.004 Y112.083 Z0.6 F2400.1
G1 X-21.036 Y113.051 Z0.6 F2400.1
G1 X-21.036 Y111.637 Z0.6 F2400.1
G1 X-22.004 Y110.669 Z0.6 F2400.1
G1 X-22.004 Y109.255 Z0.6 F2400.1
G1 X-21.036 Y110.222 Z0.6 F2400.1
G1 X-21.036 Y108.808 Z0.6 F2400.1
G1 X-22.004 Y107.841 Z0.6 F2400.1
G1 X-22.004 Y106.427 Z0.6 F2400.1
G1 X-21.013 Y107.417 Z0.6 F2400.1
G1 X-20.891 Y106.896 Z0.6 F2400.1
G1 X-20.609 Y106.407 Z0.6 F2400.1
G1 X-22.004 Y105.012 Z0.6 F2400.1
G1 X-22.004 Y103.598 Z0.6 F2400.1
G1 X-19.907 Y105.695 Z0.6 F2400.1
G1 X-19.098 Y105.401 Z0.6 F2400.1
G1 X-18.788 Y105.4 Z0.6 F2400.1
G1 X-22.004 Y102.184 Z0.6 F2400.1
G1 X-22.004 Y100.77 Z0.6 F2400.1
G1 X-16.534 Y106.24 Z0.6 F2400.1
G1 X-16.436 Y106.195 Z0.6 F2400.1
G1 X-16.436 Y104.923 Z0.6 F2400.1
G1 X-21.903 Y99.456 Z0.6 F2400.1
G1 X-20.489 Y99.456 Z0.6 F2400.1
G1 X-16.436 Y103.509 Z0.6 F2400.1
G1 X-16.436 Y102.883 Z0.6 F2400.1
G1 X-16.242 Y102.487 Z0.6 F2400.1
G1 X-16.117 Y102.414 Z0.6 F2400.1
G1 X-19.075 Y99.456 Z0.6 F2400.1
G1 X-17.661 Y99.456 Z0.6 F2400.1
G1 X-15.22 Y101.897 Z0.6 F2400.1
G1 X-14.322 Y101.38 Z0.6 F2400.1
G1 X-16.246 Y99.456 Z0.6 F2400.1
G1 X-14.832 Y99.456 Z0.6 F2400.1
G1 X-13.425 Y100.863 Z0.6 F2400.1
G1 X-12.827 Y100.563 Z0.6 F2400.1
G1 X-12.581 Y100.563 Z0.6 F2400.1
G1 X-12.048 Y100.826 Z0.6 F2400.1
G1 X-13.418 Y99.456 Z0.6 F2400.1
G1 X-12.004 Y99.456 Z0.6 F2400.1
G1 X-3.204 Y108.256 Z0.6 F2400.1
G1 X-2.807 Y108.058 Z0.6 F2400.1
G1 X-1.988 Y108.058 Z0.6 F2400.1
G1 X-10.59 Y99.456 Z0.6 F2400.1
G1 X-9.175 Y99.456 Z0.6 F2400.1
G1 X-.573 Y108.058 Z0.6 F2400.1
G1 X0.841 Y108.058 Z0.6 F2400.1
G1 X-7.761 Y99.456 Z0.6 F2400.1
G1 X-6.347 Y99.456 Z0.6 F2400.1
G1 X2.255 Y108.058 Z0.6 F2400.1
G1 X3.669 Y108.058 Z0.6 F2400.1
G1 X-4.933 Y99.456 Z0.6 F2400.1
G1 X-2.333 Y99.456 Z0.6 F2400.1
G1 X-2.099 Y100.356 Z0.6 F2400.1
G1 X-1.727 Y101.129 Z0.6 F2400.1
G1 X-1.44 Y101.535 Z0.6 F2400.1
G1 X-3.519 Y99.456 Z0.6 F2400.1
M103
G1 X-3.519 Y99.856 Z0.6 F7200
G1 X-.713 Y102.819 Z0.6 F7200
G1 X-.483 Y102.492 Z0.6 F7200
M101
G1 X5.083 Y108.058 Z0.6 F2400.1
G1 X6.498 Y108.058 Z0.6 F2400.1
G1 X1.827 Y103.387 Z0.6 F2400.1
G1 X2.293 Y103.428 Z0.6 F2400.1
G1 X3.2 Y103.346 Z0.6 F2400.1
G1 X10.298 Y110.444 Z0.6 F2400.1
G1 X10.564 Y109.872 Z0.6 F2400.1
G1 X10.802 Y109.534 Z0.6 F2400.1
G1 X4.249 Y102.981 Z0.6 F2400.1
G1 X4.627 Y102.804 Z0.6 F2400.1
G1 X5.131 Y102.449 Z0.6 F2400.1
G1 X11.394 Y108.711 Z0.6 F2400.1
G1 X12.101 Y108.004 Z0.6 F2400.1
G1 X5.865 Y101.768 Z0.6 F2400.1
G1 X6.316 Y101.128 Z0.6 F2400.1
G1 X6.42 Y100.909 Z0.6 F2400.1
G1 X12.897 Y107.386 Z0.6 F2400.1
G1 X13.413 Y107.024 Z0.6 F2400.1
G1 X13.779 Y106.854 Z0.6 F2400.1
G1 X6.81 Y99.885 Z0.6 F2400.1
G1 X6.925 Y99.456 Z0.6 F2400.1
G1 X7.795 Y99.456 Z0.6 F2400.1
G1 X14.76 Y106.421 Z0.6 F2400.1
G1 X15.877 Y106.124 Z0.6 F2400.1
G1 X9.209 Y99.456 Z0.6 F2400.1
G1 X10.624 Y99.456 Z0.6 F2400.1
G1 X17.168 Y106 Z0.6 F2400.1
G1 X17.275 Y105.991 Z0.6 F2400.1
G1 X18.693 Y106.111 Z0.6 F2400.1
G1 X12.038 Y99.456 Z0.6 F2400.1
G1 X13.452 Y99.456 Z0.6 F2400.1
G1 X20.886 Y106.89 Z0.6 F2400.1
G1 X21.178 Y107.026 Z0.6 F2400.1
G1 X22.288 Y107.805 Z0.6 F2400.1
G1 X23.259 Y108.781 Z0.6 F2400.1
G1 X24.024 Y109.872 Z0.6 F2400.1
G1 X24.595 Y111.095 Z0.6 F2400.1
G1 X24.926 Y112.344 Z0.6 F2400.1
G1 X26.592 Y114.01 Z0.6 F2400.1
G1 X26.592 Y115.425 Z0.6 F2400.1
G1 X25.046 Y113.879 Z0.6 F2400.1
G1 X24.934 Y115.181 Z0.6 F2400.1
G1 X26.592 Y116.839 Z0.6 F2400.1
G1 X26.592 Y118.253 Z0.6 F2400.1
G1 X24.644 Y116.305 Z0.6 F2400.1
G1 X24.194 Y117.269 Z0.6 F2400.1
G1 X26.53 Y119.605 Z0.6 F2400.1
G1 X26.497 Y120.064 Z0.6 F2400.1
G1 X26.334 Y120.823 Z0.6 F2400.1
G1 X23.662 Y118.151 Z0.6 F2400.1
G1 X23.259 Y118.727 Z0.6 F2400.1
G1 X23.041 Y118.945 Z0.6 F2400.1
G1 X26.015 Y121.919 Z0.6 F2400.1
G1 X25.759 Y122.606 Z0.6 F2400.1
G1 X25.593 Y122.911 Z0.6 F2400.1
G1 X22.345 Y119.663 Z0.6 F2400.1
G1 X21.515 Y120.247 Z0.6 F2400.1
G1 X25.089 Y123.821 Z0.6 F2400.1
G1 X24.481 Y124.627 Z0.6 F2400.1
G1 X20.604 Y120.751 Z0.6 F2400.1
G1 X19.955 Y121.052 Z0.6 F2400.1
G1 X19.588 Y121.149 Z0.6 F2400.1
G1 X23.8 Y125.36 Z0.6 F2400.1
G1 X23.382 Y125.778 Z0.6 F2400.1
G1 X23.051 Y126.026 Z0.6 F2400.1
G1 X18.443 Y121.418 Z0.6 F2400.1
G1 X17.289 Y121.52 Z0.6 F2400.1
G1 X17.116 Y121.505 Z0.6 F2400.1
G1 X22.233 Y126.622 Z0.6 F2400.1
G1 X21.319 Y127.122 Z0.6 F2400.1
G1 X15.468 Y121.271 Z0.6 F2400.1
G1 X14.645 Y121.055 Z0.6 F2400.1
G1 X13.431 Y120.492 Z0.6 F2400.1
G1 X12.917 Y120.134 Z0.6 F2400.1
G1 X20.311 Y127.528 Z0.6 F2400.1
G1 X19.923 Y127.674 Z0.6 F2400.1
G1 X19.199 Y127.83 Z0.6 F2400.1
G1 X7.992 Y116.624 Z0.6 F2400.1
G1 X7.992 Y118.038 Z0.6 F2400.1
G1 X17.958 Y128.004 Z0.6 F2400.1
G1 X17.263 Y128.056 Z0.6 F2400.1
G1 X16.596 Y128.056 Z0.6 F2400.1
G1 X12.304 Y123.763 Z0.6 F2400.1
G1 X12.297 Y124.126 Z0.6 F2400.1
G1 X12.19 Y124.616 Z0.6 F2400.1
G1 X12.038 Y124.913 Z0.6 F2400.1
G1 X15.182 Y128.056 Z0.6 F2400.1
G1 X13.767 Y128.056 Z0.6 F2400.1
G1 X11.443 Y125.731 Z0.6 F2400.1
G1 X11.15 Y125.955 Z0.6 F2400.1
G1 X10.58 Y126.282 Z0.6 F2400.1
G1 X12.353 Y128.056 Z0.6 F2400.1
G1 X10.939 Y128.056 Z0.6 F2400.1
G1 X9.695 Y126.812 Z0.6 F2400.1
G1 X8.707 Y127.238 Z0.6 F2400.1
G1 X9.525 Y128.056 Z0.6 F2400.1
G1 X8.111 Y128.056 Z0.6 F2400.1
G1 X7.732 Y127.677 Z0.6 F2400.1
M103
G1 X8.359 Y127.736 Z0.6 F7200
G1 X9.698 Y127.182 Z0.6 F7200
G1 X11.375 Y126.22 Z0.6 F7200
G1 X12.35 Y125.126 Z0.6 F7200
G1 X12.711 Y123.776 Z0.6 F7200
G1 X12.304 Y123.763 Z0.6 F7200
M101
G1 X12.247 Y123.257 Z0.6 F2400.1
G1 X12.127 Y122.877 Z0.6 F2400.1
G1 X11.894 Y122.436 Z0.6 F2400.1
G1 X11.616 Y122.092 Z0.6 F2400.1
G1 X11.299 Y121.811 Z0.6 F2400.1
G1 X10.92 Y121.576 Z0.6 F2400.1
G1 X10.557 Y121.434 Z0.6 F2400.1
G1 X10.111 Y121.33 Z0.6 F2400.1
G1 X9.861 Y121.32 Z0.6 F2400.1
G1 X7.776 Y119.236 Z0.6 F2400.1
G1 X7.493 Y119.456 Z0.6 F2400.1
G1 X6.582 Y119.456 Z0.6 F2400.1
G1 X8.69 Y121.564 Z0.6 F2400.1
G1 X7.787 Y122.075 Z0.6 F2400.1
G1 X5.168 Y119.456 Z0.6 F2400.1
G1 X3.753 Y119.456 Z0.6 F2400.1
G1 X6.853 Y122.555 Z0.6 F2400.1
G1 X5.846 Y122.963 Z0.6 F2400.1
G1 X2.339 Y119.456 Z0.6 F2400.1
G1 X0.925 Y119.456 Z0.6 F2400.1
G1 X4.728 Y123.259 Z0.6 F2400.1
G1 X4.441 Y123.335 Z0.6 F2400.1
G1 X3.509 Y123.454 Z0.6 F2400.1
G1 X-.489 Y119.456 Z0.6 F2400.1
G1 X-1.904 Y119.456 Z0.6 F2400.1
G1 X2.16 Y123.52 Z0.6 F2400.1
G1 X1.582 Y123.52 Z0.6 F2400.1
G1 X0.623 Y123.396 Z0.6 F2400.1
G1 X-9.554 Y113.219 Z0.6 F2400.1
G1 X-9.503 Y113.754 Z0.6 F2400.1
G1 X-9.554 Y114.316 Z0.6 F2400.1
G1 X-9.618 Y114.57 Z0.6 F2400.1
G1 X-1.211 Y122.977 Z0.6 F2400.1
G1 X-2.568 Y122.432 Z0.6 F2400.1
G1 X-3.954 Y121.648 Z0.6 F2400.1
G1 X-10.061 Y115.541 Z0.6 F2400.1
G1 X-10.233 Y115.79 Z0.6 F2400.1
G1 X-10.726 Y116.29 Z0.6 F2400.1
G1 X-5.657 Y121.359 Z0.6 F2400.1
G1 X-6.3 Y121.566 Z0.6 F2400.1
G1 X-6.652 Y121.778 Z0.6 F2400.1
G1 X-11.658 Y116.772 Z0.6 F2400.1
G1 X-12.109 Y116.9 Z0.6 F2400.1
G1 X-12.662 Y116.952 Z0.6 F2400.1
G1 X-12.91 Y116.935 Z0.6 F2400.1
G1 X-9.609 Y120.236 Z0.6 F2400.1
G1 X-12.426 Y118.607 Z0.6 F2400.1
G1 X-12.699 Y118.56 Z0.6 F2400.1
G1 X-16.324 Y114.935 Z0.6 F2400.1
G1 X-16.324 Y116.349 Z0.6 F2400.1
G1 X-13.669 Y119.004 Z0.6 F2400.1
G1 X-14.566 Y119.522 Z0.6 F2400.1
G1 X-16.324 Y117.763 Z0.6 F2400.1
G1 X-16.324 Y119.177 Z0.6 F2400.1
G1 X-15.463 Y120.038 Z0.6 F2400.1
G1 X-16.324 Y120.536 Z0.6 F2400.1
M103
G1 X-15.978 Y119.934 Z0.6 F7200
G1 X-10.428 Y116.47 Z0.6 F7200
G1 X-9.637 Y115.529 Z0.6 F7200
G1 X-9.215 Y114.369 Z0.6 F7200
G1 X-9.215 Y113.143 Z0.6 F7200
G1 X-9.637 Y111.983 Z0.6 F7200
G1 X-10.428 Y111.042 Z0.6 F7200
G1 X-11.494 Y110.426 Z0.6 F7200
G1 X-12.705 Y110.212 Z0.6 F7200
G1 X-13.916 Y110.426 Z0.6 F7200
G1 X-14.982 Y111.042 Z0.6 F7200
G1 X-15.706 Y111.889 Z0.6 F7200
G1 X-16.324 Y113.258 Z0.6 F7200
M101
G1 X-15.893 Y113.318 Z0.6 F2400.1
G1 X-15.694 Y112.611 Z0.6 F2400.1
G1 X-15.496 Y112.191 Z0.6 F2400.1
G1 X-15.226 Y111.79 Z0.6 F2400.1
G1 X-16.324 Y110.693 Z0.6 F2400.1
G1 X-16.324 Y109.278 Z0.6 F2400.1
G1 X-14.492 Y111.11 Z0.6 F2400.1
G1 X-14.352 Y111.008 Z0.6 F2400.1
G1 X-13.843 Y110.762 Z0.6 F2400.1
G1 X-13.518 Y110.67 Z0.6 F2400.1
G1 X-16.324 Y107.864 Z0.6 F2400.1
G1 X-16.324 Y107.515 Z0.6 F2400.1
G1 X-16.378 Y107.294 Z0.6 F2400.1
G1 X-16.115 Y107.096 Z0.6 F2400.1
G1 X-15.087 Y107.687 Z0.6 F2400.1
G1 X-12.188 Y110.585 Z0.6 F2400.1
G1 X-11.566 Y110.762 Z0.6 F2400.1
G1 X-11.055 Y111.01 Z0.6 F2400.1
G1 X-10.619 Y111.326 Z0.6 F2400.1
G1 X-10.23 Y111.721 Z0.6 F2400.1
G1 X-9.909 Y112.189 Z0.6 F2400.1
G1 X-9.677 Y112.706 Z0.6 F2400.1
G1 X-9.554 Y113.219 Z0.6 F2400.1
M103
G1 X-9.151 Y113.185 Z0.6 F7200
G1 X-9.637 Y111.983 Z0.6 F7200
G1 X-10.428 Y111.042 Z0.6 F7200
G1 X-11.494 Y110.426 Z0.6 F7200
G1 X-12.705 Y110.212 Z0.6 F7200
G1 X-13.916 Y110.426 Z0.6 F7200
G1 X-14.982 Y111.042 Z0.6 F7200
G1 X-15.977 Y112.397 Z0.6 F7200
G1 X-15.721 Y112.709 Z0.6 F7200
M101
G1 X-16.324 Y112.107 Z0.6 F2400.1
M103
G1 X-15.927 Y112.107 Z0.6 F7200
G1 X-13.496 Y109 Z0.6 F7200
G1 X-8.64 Y107.102 Z0.6 F7200
G1 X-8.64 Y102.41 Z0.6 F7200
G1 X-9.164 Y102.488 Z0.6 F7200
M101
G1 X-8.972 Y102.889 Z0.6 F2400.1
G1 X-8.974 Y103.9 Z0.6 F2400.1
G1 X-3.399 Y109.475 Z0.6 F2400.1
G1 X-3.4 Y110.888 Z0.6 F2400.1
G1 X-8.975 Y105.313 Z0.6 F2400.1
G1 X-8.977 Y106.61 Z0.6 F2400.1
G1 X-9.006 Y106.697 Z0.6 F2400.1
G1 X-3.4 Y112.302 Z0.6 F2400.1
G1 X-3.4 Y113.716 Z0.6 F2400.1
G1 X-9.759 Y107.358 Z0.6 F2400.1
G1 X-10.655 Y107.876 Z0.6 F2400.1
G1 X-3.401 Y115.13 Z0.6 F2400.1
G1 X-3.402 Y116.543 Z0.6 F2400.1
G1 X-11.551 Y108.394 Z0.6 F2400.1
G1 X-12.447 Y108.912 Z0.6 F2400.1
G1 X-3.403 Y117.957 Z0.6 F2400.1
G1 X-3.403 Y118.826 Z0.6 F2400.1
G1 X-3.298 Y119.138 Z0.6 F2400.1
G1 X-3.108 Y119.337 Z0.6 F2400.1
G1 X-2.734 Y119.456 Z0.6 F2400.1
M103
G1 X-2.734 Y119.856 Z0.6 F7200
G1 X8.323 Y119.784 Z0.6 F7200
G1 X10.581 Y118.351 Z0.6 F7200
G1 X10.906 Y118.124 Z0.6 F7200
M101
G1 X7.992 Y115.21 Z0.6 F2400.1
G1 X7.992 Y113.795 Z0.6 F2400.1
G1 X9.773 Y115.576 Z0.6 F2400.1
G1 X9.648 Y115.108 Z0.6 F2400.1
G1 X9.547 Y113.936 Z0.6 F2400.1
G1 X7.992 Y112.381 Z0.6 F2400.1
G1 X7.992 Y110.967 Z0.6 F2400.1
G1 X9.631 Y112.605 Z0.6 F2400.1
G1 X9.648 Y112.4 Z0.6 F2400.1
G1 X9.899 Y111.459 Z0.6 F2400.1
G1 X7.992 Y109.553 Z0.6 F2400.1
G1 X7.992 Y108.734 Z0.6 F2400.1
G1 X7.938 Y108.469 Z0.6 F2400.1
G1 X7.712 Y108.187 Z0.6 F2400.1
G1 X7.383 Y108.058 Z0.6 F2400.1
M103
G1 X7.383 Y107.656 Z0.6 F7200
G1 X15.889 Y105.771 Z0.6 F7200
G1 X17.295 Y105.648 Z0.6 F7200
G1 X18.702 Y105.771 Z0.6 F7200
G1 X20.067 Y106.138 Z0.6 F7200
G1 X21.348 Y106.735 Z0.6 F7200
G1 X22.506 Y107.545 Z0.6 F7200
G1 X23.405 Y108.445 Z0.6 F7200
G1 X24.52 Y109.997 Z0.6 F7200
G1 X24.16 Y110.164 Z0.6 F7200
M101
G1 X26.592 Y112.596 Z0.6 F2400.1
G1 X26.592 Y111.182 Z0.6 F2400.1
G1 X14.866 Y99.456 Z0.6 F2400.1
G1 X16.28 Y99.456 Z0.6 F2400.1
G1 X26.592 Y109.768 Z0.6 F2400.1
G1 X26.592 Y108.771 Z0.6 F2400.1
G1 X26.56 Y108.322 Z0.6 F2400.1
G1 X17.727 Y99.489 Z0.6 F2400.1
G1 X18.615 Y99.551 Z0.6 F2400.1
G1 X19.367 Y99.714 Z0.6 F2400.1
G1 X26.333 Y106.68 Z0.6 F2400.1
G1 X26.214 Y106.125 Z0.6 F2400.1
G1 X25.758 Y104.902 Z0.6 F2400.1
G1 X25.506 Y104.439 Z0.6 F2400.1
G1 X21.611 Y100.544 Z0.6 F2400.1
G1 X22.318 Y100.929 Z0.6 F2400.1
G1 X23.383 Y101.73 Z0.6 F2400.1
G1 X24.318 Y102.666 Z0.6 F2400.1
G1 X25.119 Y103.729 Z0.6 F2400.1
M103
G1 X24.781 Y103.945 Z0.6 F7200
G1 X15.889 Y105.771 Z0.6 F7200
G1 X14.523 Y106.138 Z0.6 F7200
G1 X13.242 Y106.735 Z0.6 F7200
G1 X12.085 Y107.545 Z0.6 F7200
G1 X11.085 Y108.545 Z0.6 F7200
G1 X10.275 Y109.703 Z0.6 F7200
G1 X9.677 Y110.984 Z0.6 F7200
G1 X8.328 Y114.305 Z0.6 F7200
G1 X8.323 Y119.784 Z0.6 F7200
G1 X-5.544 Y120.991 Z0.6 F7200
G1 X-6.919 Y121.541 Z0.6 F7200
G1 X-7.837 Y122.706 Z0.6 F7200
G1 X-8.64 Y125.102 Z0.6 F7200
G1 X-12.207 Y127.238 Z0.6 F7200
G1 X-12.631 Y126.503 Z0.6 F7200
;TYPE:WALL-OUTER
M108 S15.6
M101
G1 X-9.504 Y124.69 Z0.6 F1200.1
G1 X-9.423 Y124.532 Z0.6 F1200.1
G1 X-9.422 Y120.935 Z0.6 F1200.1
G1 X-9.519 Y120.805 Z0.6 F1200.1
G1 X-12.613 Y119.022 Z0.6 F1200.1
G1 X-12.613 Y119.022 Z0.6 F1200.1
G1 X-12.794 Y119.022 Z0.6 F1200.1
G1 X-15.876 Y120.796 Z0.6 F1200.1
G1 X-15.983 Y120.933 Z0.6 F1200.1
G1 X-15.983 Y124.548 Z0.6 F1200.1
G1 X-15.913 Y124.692 Z0.6 F1200.1
G1 X-12.777 Y126.503 Z0.6 F1200.1
G1 X-12.631 Y126.503 Z0.6 F1200.1
M103
G1 X-12.777 Y126.503 Z0.6 F7200
G1 X-12.867 Y126.451 Z0.6 F7200
G1 X-13.293 Y127.186 Z0.6 F7200
G1 X-16.77 Y125.102 Z0.6 F7200
G1 X-18.392 Y122.509 Z0.6 F7200
G1 X-18.392 Y121.658 Z0.6 F7200
M101
G1 X-17.991 Y121.549 Z0.6 F1200.1
G1 X-17.452 Y121.239 Z0.6 F1200.1
G1 X-17.03 Y120.731 Z0.6 F1200.1
G1 X-17.03 Y120.731 Z0.6 F1200.1
G1 X-16.774 Y120.042 Z0.6 F1200.1
G1 X-16.774 Y107.5 Z0.6 F1200.1
G1 X-16.891 Y107.067 Z0.6 F1200.1
G1 X-17.221 Y106.501 Z0.6 F1200.1
G1 X-17.722 Y106.077 Z0.6 F1200.1
G1 X-18.344 Y105.85 Z0.6 F1200.1
G1 X-19.016 Y105.85 Z0.6 F1200.1
G1 X-19.636 Y106.076 Z0.6 F1200.1
G1 X-20.143 Y106.5 Z0.6 F1200.1
G1 X-20.453 Y107.039 Z0.6 F1200.1
G1 X-20.586 Y107.501 Z0.6 F1200.1
G1 X-20.583 Y120.016 Z0.6 F1200.1
G1 X-20.47 Y120.44 Z0.6 F1200.1
G1 X-20.143 Y121.008 Z0.6 F1200.1
G1 X-19.636 Y121.432 Z0.6 F1200.1
G1 X-19.016 Y121.658 Z0.6 F1200.1
G1 X-18.392 Y121.658 Z0.6 F1200.1
M103
G1 X-18.642 Y121.658 Z0.6 F7200
G1 X-18.642 Y122.509 Z0.6 F7200
G1 X-16.77 Y125.102 Z0.6 F7200
G1 X-12.705 Y127.451 Z0.6 F7200
G1 X-8.64 Y125.102 Z0.6 F7200
G1 X-8.64 Y120.41 Z0.6 F7200
G1 X-12.61 Y117.352 Z0.6 F7200
G1 X-12.683 Y116.502 Z0.6 F7200
M101
G1 X-12.205 Y116.46 Z0.6 F1200.1
G1 X-11.783 Y116.346 Z0.6 F1200.1
G1 X-11.346 Y116.147 Z0.6 F1200.1
G1 X-10.956 Y115.877 Z0.6 F1200.1
G1 X-10.586 Y115.51 Z0.6 F1200.1
G1 X-10.332 Y115.154 Z0.6 F1200.1
G1 X-10.109 Y114.675 Z0.6 F1200.1
G1 X-9.997 Y114.236 Z0.6 F1200.1
G1 X-9.954 Y113.756 Z0.6 F1200.1
G1 X-10.001 Y113.253 Z0.6 F1200.1
G1 X-10.109 Y112.833 Z0.6 F1200.1
G1 X-10.309 Y112.397 Z0.6 F1200.1
G1 X-10.579 Y112.007 Z0.6 F1200.1
G1 X-10.923 Y111.659 Z0.6 F1200.1
G1 X-11.308 Y111.383 Z0.6 F1200.1
G1 X-11.782 Y111.162 Z0.6 F1200.1
G1 X-12.198 Y111.05 Z0.6 F1200.1
G1 X-12.683 Y111.006 Z0.6 F1200.1
G1 X-13.161 Y111.042 Z0.6 F1200.1
G1 X-13.625 Y111.162 Z0.6 F1200.1
G1 X-14.101 Y111.383 Z0.6 F1200.1
G1 X-14.452 Y111.631 Z0.6 F1200.1
G1 X-14.83 Y112.009 Z0.6 F1200.1
G1 X-15.095 Y112.397 Z0.6 F1200.1
G1 X-15.279 Y112.789 Z0.6 F1200.1
G1 X-15.406 Y113.251 Z0.6 F1200.1
G1 X-15.454 Y113.756 Z0.6 F1200.1
G1 X-15.411 Y114.235 Z0.6 F1200.1
G1 X-15.294 Y114.677 Z0.6 F1200.1
G1 X-15.095 Y115.114 Z0.6 F1200.1
G1 X-14.829 Y115.5 Z0.6 F1200.1
G1 X-14.485 Y115.849 Z0.6 F1200.1
G1 X-14.101 Y116.125 Z0.6 F1200.1
G1 X-14.101 Y116.125 Z0.6 F1200.1
G1 X-13.666 Y116.331 Z0.6 F1200.1
G1 X-13.161 Y116.466 Z0.6 F1200.1
G1 X-12.683 Y116.502 Z0.6 F1200.1
M103
G1 X-12.932 Y116.484 Z0.6 F7200
G1 X-13.006 Y117.333 Z0.6 F7200
G1 X-11.494 Y117.085 Z0.6 F7200
G1 X-10.428 Y116.47 Z0.6 F7200
G1 X-9.637 Y115.529 Z0.6 F7200
G1 X-9.215 Y114.369 Z0.6 F7200
G1 X-9.215 Y113.143 Z0.6 F7200
G1 X-9.637 Y111.983 Z0.6 F7200
G1 X-12.188 Y109.227 Z0.6 F7200
G1 X-12.613 Y108.49 Z0.6 F7200
M101
G1 X-9.52 Y106.703 Z0.6 F1200.1
G1 X-9.52 Y106.703 Z0.6 F1200.1
G1 X-9.424 Y106.542 Z0.6 F1200.1
G1 X-9.427 Y102.954 Z0.6 F1200.1
G1 X-9.494 Y102.818 Z0.6 F1200.1
G1 X-12.631 Y101.009 Z0.6 F1200.1
G1 X-12.777 Y101.009 Z0.6 F1200.1
G1 X-15.861 Y102.787 Z0.6 F1200.1
G1 X-15.985 Y102.92 Z0.6 F1200.1
G1 X-15.986 Y106.504 Z0.6 F1200.1
G1 X-15.929 Y106.682 Z0.6 F1200.1
G1 X-12.794 Y108.49 Z0.6 F1200.1
G1 X-12.613 Y108.49 Z0.6 F1200.1
M103
G1 X-12.794 Y108.49 Z0.6 F7200
G1 X-12.853 Y108.456 Z0.6 F7200
G1 X-13.28 Y109.193 Z0.6 F7200
G1 X2.196 Y103.821 Z0.6 F7200
G1 X2.27 Y102.974 Z0.6 F7200
M101
G1 X3.032 Y102.911 Z0.6 F1200.1
G1 X3.718 Y102.726 Z0.6 F1200.1
G1 X4.386 Y102.419 Z0.6 F1200.1
G1 X5.012 Y101.986 Z0.6 F1200.1
G1 X5.533 Y101.464 Z0.6 F1200.1
G1 X5.938 Y100.883 Z0.6 F1200.1
G1 X6.251 Y100.222 Z0.6 F1200.1
G1 X6.446 Y99.513 Z0.6 F1200.1
G1 X6.494 Y99.006 Z0.6 F1200.1
G1 X17.279 Y99.006 Z0.6 F1200.1
G1 X18.68 Y99.105 Z0.6 F1200.1
G1 X20.049 Y99.401 Z0.6 F1200.1
G1 X21.339 Y99.884 Z0.6 F1200.1
G1 X22.56 Y100.547 Z0.6 F1200.1
G1 X23.683 Y101.394 Z0.6 F1200.1
G1 X24.654 Y102.365 Z0.6 F1200.1
G1 X25.501 Y103.488 Z0.6 F1200.1
G1 X26.167 Y104.712 Z0.6 F1200.1
G1 X26.647 Y105.999 Z0.6 F1200.1
G1 X26.943 Y107.376 Z0.6 F1200.1
G1 X27.042 Y108.761 Z0.6 F1200.1
G1 X27.042 Y108.761 Z0.6 F1200.1
G1 X27.042 Y118.743 Z0.6 F1200.1
G1 X26.943 Y120.132 Z0.6 F1200.1
G1 X26.647 Y121.509 Z0.6 F1200.1
G1 X26.167 Y122.796 Z0.6 F1200.1
G1 X25.501 Y124.02 Z0.6 F1200.1
G1 X24.654 Y125.143 Z0.6 F1200.1
G1 X23.683 Y126.114 Z0.6 F1200.1
G1 X22.56 Y126.957 Z0.6 F1200.1
G1 X21.339 Y127.624 Z0.6 F1200.1
G1 X20.049 Y128.107 Z0.6 F1200.1
G1 X18.68 Y128.403 Z0.6 F1200.1
G1 X17.278 Y128.506 Z0.6 F1200.1
G1 X7.838 Y128.506 Z0.6 F1200.1
G1 X6.941 Y128.476 Z0.6 F1130
G1 X6.043 Y128.445 Z0.6 F1011.8
G1 X5.967 Y128.433 Z0.6 F944.9
G1 X5.044 Y128.472 Z0.6 F988.5
G1 X4.12 Y128.512 Z0.6 F1136.4
G1 X2.317 Y128.538 Z0.6 F1296
G1 X0.468 Y128.512 Z0.6 F1298.8
G1 X-.455 Y128.472 Z0.6 F1138.6
G1 X-1.379 Y128.432 Z0.6 F990.1
G1 X-1.455 Y128.444 Z0.6 F946.4
G1 X-2.35 Y128.475 Z0.6 F1013.6
G1 X-3.246 Y128.506 Z0.6 F1132.1
G1 X-22.454 Y128.506 Z0.6 F1200.1
G1 X-22.454 Y99.006 Z0.6 F1200.1
G1 X-1.902 Y99.006 Z0.6 F1200.1
G1 X-1.862 Y99.47 Z0.6 F1200.1
G1 X-1.678 Y100.18 Z0.6 F1200.1
G1 X-1.371 Y100.846 Z0.6 F1200.1
G1 X-.939 Y101.467 Z0.6 F1200.1
G1 X-.409 Y101.995 Z0.6 F1200.1
G1 X0.164 Y102.397 Z0.6 F1200.1
G1 X0.866 Y102.726 Z0.6 F1200.1
G1 X1.578 Y102.914 Z0.6 F1200.1
G1 X2.27 Y102.974 Z0.6 F1200.1
M103
G1 X2.022 Y102.953 Z0.6 F7200
G1 X1.949 Y103.799 Z0.6 F7200
G1 X8.323 Y107.728 Z0.6 F7200
G1 X8.323 Y119.784 Z0.6 F7200
G1 X7.358 Y119.006 Z0.6 F7200
M101
G1 X7.501 Y118.894 Z0.6 F1200.1
G1 X7.543 Y118.756 Z0.6 F1200.1
G1 X7.543 Y108.681 Z0.6 F1200.1
G1 X7.441 Y108.554 Z0.6 F1200.1
G1 X7.32 Y108.507 Z0.6 F1200.1
G1 X7.32 Y108.507 Z0.6 F1200.1
G1 X-2.783 Y108.507 Z0.6 F1200.1
G1 X-2.907 Y108.609 Z0.6 F1200.1
G1 X-2.952 Y108.718 Z0.6 F1200.1
G1 X-2.954 Y118.775 Z0.6 F1200.1
G1 X-2.885 Y118.929 Z0.6 F1200.1
G1 X-2.766 Y119.006 Z0.6 F1200.1
G1 X7.358 Y119.006 Z0.6 F1200.1
M103
G1 X7.108 Y119.006 Z0.6 F7200
G1 X7.108 Y119.856 Z0.6 F7200
G1 X11.087 Y121.279 Z0.6 F7200
G1 X12.191 Y122.268 Z0.6 F7200
G1 X12.653 Y123.675 Z0.6 F7200
G1 X12.386 Y125.037 Z0.6 F7200
G1 X11.719 Y126.025 Z0.6 F7200
G1 X11.191 Y125.357 Z0.6 F7200
M101
G1 X11.438 Y125.088 Z0.6 F1200.1
G1 X11.63 Y124.783 Z0.6 F1200.1
G1 X11.768 Y124.456 Z0.6 F1200.1
G1 X11.849 Y124.075 Z0.6 F1200.1
G1 X11.86 Y123.694 Z0.6 F1200.1
G1 X11.808 Y123.357 Z0.6 F1200.1
G1 X11.808 Y123.357 Z0.6 F1200.1
G1 X11.707 Y123.039 Z0.6 F1200.1
G1 X11.522 Y122.692 Z0.6 F1200.1
G1 X11.297 Y122.411 Z0.6 F1200.1
G1 X11.052 Y122.189 Z0.6 F1200.1
G1 X10.723 Y121.981 Z0.6 F1200.1
G1 X10.374 Y121.847 Z0.6 F1200.1
G1 X10.045 Y121.776 Z0.6 F1200.1
G1 X9.657 Y121.768 Z0.6 F1200.1
G1 X9.345 Y121.812 Z0.6 F1200.1
G1 X8.961 Y121.934 Z0.6 F1200.1
G1 X7.355 Y122.838 Z0.6 F1200.1
G1 X5.972 Y123.398 Z0.6 F1200.1
G1 X4.531 Y123.778 Z0.6 F1200.1
G1 X3.035 Y123.97 Z0.6 F1200.1
G1 X1.552 Y123.97 Z0.6 F1200.1
G1 X0.053 Y123.778 Z0.6 F1200.1
G1 X-1.38 Y123.398 Z0.6 F1200.1
G1 X-2.763 Y122.838 Z0.6 F1200.1
G1 X-4.324 Y121.954 Z0.6 F1200.1
G1 X-4.709 Y121.822 Z0.6 F1200.1
G1 X-5.091 Y121.766 Z0.6 F1200.1
G1 X-5.448 Y121.775 Z0.6 F1200.1
G1 X-5.786 Y121.847 Z0.6 F1200.1
G1 X-6.136 Y121.984 Z0.6 F1200.1
G1 X-6.458 Y122.188 Z0.6 F1200.1
G1 X-6.73 Y122.434 Z0.6 F1200.1
G1 X-6.949 Y122.721 Z0.6 F1200.1
G1 X-7.097 Y122.997 Z0.6 F1200.1
G1 X-7.214 Y123.336 Z0.6 F1200.1
G1 X-7.268 Y123.697 Z0.6 F1200.1
G1 X-7.259 Y124.092 Z0.6 F1200.1
G1 X-7.189 Y124.414 Z0.6 F1200.1
G1 X-7.061 Y124.745 Z0.6 F1200.1
G1 X-6.86 Y125.071 Z0.6 F1200.1
G1 X-6.636 Y125.326 Z0.6 F1200.1
G1 X-6.354 Y125.55 Z0.6 F1200.1
G1 X-4.765 Y126.465 Z0.6 F1200.1
G1 X-3.083 Y127.19 Z0.6 F1200.1
G1 X-2.22 Y127.48 Z0.6 F1132.1
G1 X-1.357 Y127.771 Z0.6 F1013.6
G1 X-1.324 Y127.791 Z0.6 F946.4
G1 X-.436 Y127.906 Z0.6 F988.5
G1 X0.453 Y128.022 Z0.6 F1134.3
G1 X2.279 Y128.102 Z0.6 F1293.2
G1 X4.135 Y128.022 Z0.6 F1293.2
G1 X5.023 Y127.907 Z0.6 F1132.1
G1 X5.912 Y127.791 Z0.6 F986.9
G1 X5.945 Y127.77 Z0.6 F944.9
G1 X6.81 Y127.48 Z0.6 F1011.8
G1 X7.675 Y127.19 Z0.6 F1130
G1 X9.331 Y126.478 Z0.6 F1200.1
G1 X10.917 Y125.569 Z0.6 F1200.1
G1 X11.191 Y125.357 Z0.6 F1200.1
M103
G1 X10.994 Y125.51 Z0.6 F7200
G1 X11.523 Y126.179 Z0.6 F7200
G1 X17.196 Y121.914 Z0.6 F7200
G1 X17.27 Y121.066 Z0.6 F7200
M101
G1 X18.546 Y120.958 Z0.6 F1200.1
G1 X19.818 Y120.619 Z0.6 F1200.1
G1 X20.934 Y120.099 Z0.6 F1200.1
G1 X21.976 Y119.373 Z0.6 F1200.1
G1 X22.907 Y118.444 Z0.6 F1200.1
G1 X23.617 Y117.432 Z0.6 F1200.1
G1 X23.617 Y117.432 Z0.6 F1200.1
G1 X24.159 Y116.278 Z0.6 F1200.1
G1 X24.495 Y115.028 Z0.6 F1200.1
G1 X24.606 Y113.756 Z0.6 F1200.1
G1 X24.498 Y112.502 Z0.6 F1200.1
G1 X24.174 Y111.271 Z0.6 F1200.1
G1 X23.639 Y110.114 Z0.6 F1200.1
G1 X22.913 Y109.072 Z0.6 F1200.1
G1 X21.979 Y108.137 Z0.6 F1200.1
G1 X20.972 Y107.431 Z0.6 F1200.1
G1 X19.818 Y106.889 Z0.6 F1200.1
G1 X18.556 Y106.551 Z0.6 F1200.1
G1 X17.314 Y106.442 Z0.6 F1200.1
G1 X16.02 Y106.553 Z0.6 F1200.1
G1 X14.811 Y106.874 Z0.6 F1200.1
G1 X13.654 Y107.409 Z0.6 F1200.1
G1 X12.594 Y108.148 Z0.6 F1200.1
G1 X11.703 Y109.039 Z0.6 F1200.1
G1 X10.971 Y110.076 Z0.6 F1200.1
G1 X10.429 Y111.23 Z0.6 F1200.1
G1 X10.09 Y112.502 Z0.6 F1200.1
G1 X9.982 Y113.756 Z0.6 F1200.1
G1 X10.093 Y115.028 Z0.6 F1200.1
G1 X10.414 Y116.237 Z0.6 F1200.1
G1 X10.949 Y117.394 Z0.6 F1200.1
G1 X11.683 Y118.447 Z0.6 F1200.1
G1 X12.601 Y119.365 Z0.6 F1200.1
G1 X13.645 Y120.095 Z0.6 F1200.1
G1 X14.795 Y120.629 Z0.6 F1200.1
G1 X16.034 Y120.957 Z0.6 F1200.1
G1 X17.27 Y121.066 Z0.6 F1200.1
M103
G1 X17.022 Y121.045 Z0.6 F7200
G1 X16.913 Y122.291 Z0.6 F7200
;MESH:NONMESH
G1 X16.913 Y122.291 Z0.85 F600
G1 X16.913 Y122.291 Z0.85 F7200
G1 X14.523 Y121.373 Z0.85 F7200
G1 X13.242 Y120.776 Z0.85 F7200
G1 X12.085 Y119.966 Z0.85 F7200
G1 X11.085 Y118.966 Z0.85 F7200
G1 X10.275 Y117.81 Z0.85 F7200
G1 X9.677 Y116.528 Z0.85 F7200
G1 X9.381 Y115.422 Z0.85 F7200
G1 X7.218 Y99.835 Z0.85 F7200
G1 X6.925 Y99.456 Z0.85 F7200
;TIME_ELAPSED:216.612995
;LAYER:3
;TYPE:FILL
;MESH:test_job.STL
M108 S31.2
M101
G1 X6.685 Y100.357 Z0.85 F2400.1
G1 X6.316 Y101.128 Z0.85 F2400.1
G1 X6.035 Y101.53 Z0.85 F2400.1
G1 X8.109 Y99.456 Z0.85 F2400.1
M103
G1 X8.109 Y99.856 Z0.85 F7200
G1 X12.7 Y107.041 Z0.85 F7200
G1 X12.927 Y107.366 Z0.85 F7200
M101
G1 X20.314 Y99.979 Z0.85 F2400.1
G1 X21.147 Y100.291 Z0.85 F2400.1
G1 X21.322 Y100.385 Z0.85 F2400.1
G1 X15.476 Y106.231 Z0.85 F2400.1
G1 X15.94 Y106.108 Z0.85 F2400.1
G1 X17.116 Y106.005 Z0.85 F2400.1
G1 X22.246 Y100.875 Z0.85 F2400.1
G1 X23.054 Y101.482 Z0.85 F2400.1
G1 X18.445 Y106.091 Z0.85 F2400.1
G1 X18.62 Y106.105 Z0.85 F2400.1
G1 X19.59 Y106.359 Z0.85 F2400.1
G1 X23.801 Y102.149 Z0.85 F2400.1
G1 X24.318 Y102.666 Z0.85 F2400.1
G1 X24.481 Y102.883 Z0.85 F2400.1
G1 X20.605 Y106.759 Z0.85 F2400.1
G1 X21.178 Y107.026 Z0.85 F2400.1
G1 X21.515 Y107.263 Z0.85 F2400.1
G1 X25.094 Y103.684 Z0.85 F2400.1
G1 X25.593 Y104.599 Z0.85 F2400.1
G1 X22.338 Y107.855 Z0.85 F2400.1
G1 X23.043 Y108.564 Z0.85 F2400.1
G1 X26.014 Y105.592 Z0.85 F2400.1
G1 X26.214 Y106.125 Z0.85 F2400.1
G1 X26.334 Y106.687 Z0.85 F2400.1
G1 X23.663 Y109.358 Z0.85 F2400.1
G1 X24.024 Y109.872 Z0.85 F2400.1
G1 X24.196 Y110.239 Z0.85 F2400.1
G1 X26.53 Y107.905 Z0.85 F2400.1
G1 X26.592 Y108.771 Z0.85 F2400.1
G1 X26.591 Y109.258 Z0.85 F2400.1
G1 X24.629 Y111.221 Z0.85 F2400.1
G1 X24.925 Y112.339 Z0.85 F2400.1
G1 X26.591 Y110.672 Z0.85 F2400.1
G1 X26.591 Y112.086 Z0.85 F2400.1
G1 X25.046 Y113.631 Z0.85 F2400.1
G1 X25.057 Y113.757 Z0.85 F2400.1
G1 X24.936 Y115.156 Z0.85 F2400.1
G1 X26.591 Y113.501 Z0.85 F2400.1
G1 X26.591 Y114.915 Z0.85 F2400.1
G1 X24.158 Y117.348 Z0.85 F2400.1
G1 X24.024 Y117.636 Z0.85 F2400.1
G1 X23.259 Y118.727 Z0.85 F2400.1
G1 X22.285 Y119.706 Z0.85 F2400.1
G1 X21.178 Y120.483 Z0.85 F2400.1
G1 X19.955 Y121.052 Z0.85 F2400.1
G1 X18.715 Y121.377 Z0.85 F2400.1
G1 X12.036 Y128.056 Z0.85 F2400.1
G1 X10.621 Y128.056 Z0.85 F2400.1
G1 X17.169 Y121.509 Z0.85 F2400.1
G1 X15.87 Y121.393 Z0.85 F2400.1
G1 X9.207 Y128.056 Z0.85 F2400.1
G1 X7.793 Y128.056 Z0.85 F2400.1
G1 X8.541 Y127.308 Z0.85 F2400.1
G1 X9.52 Y126.888 Z0.85 F2400.1
G1 X11.15 Y125.955 Z0.85 F2400.1
G1 X11.485 Y125.698 Z0.85 F2400.1
G1 X11.843 Y125.299 Z0.85 F2400.1
G1 X12.19 Y124.616 Z0.85 F2400.1
G1 X12.297 Y124.126 Z0.85 F2400.1
G1 X12.294 Y123.556 Z0.85 F2400.1
G1 X14.747 Y121.103 Z0.85 F2400.1
G1 X13.781 Y120.654 Z0.85 F2400.1
G1 X11.931 Y122.504 Z0.85 F2400.1
G1 X11.616 Y122.092 Z0.85 F2400.1
G1 X11.244 Y121.777 Z0.85 F2400.1
G1 X12.9 Y120.121 Z0.85 F2400.1
G1 X12.317 Y119.715 Z0.85 F2400.1
G1 X12.104 Y119.502 Z0.85 F2400.1
G1 X10.245 Y121.362 Z0.85 F2400.1
G1 X9.609 Y121.32 Z0.85 F2400.1
G1 X9.216 Y121.376 Z0.85 F2400.1
G1 X8.601 Y121.591 Z0.85 F2400.1
G1 X11.386 Y118.806 Z0.85 F2400.1
G1 X10.802 Y117.976 Z0.85 F2400.1
G1 X5.801 Y122.977 Z0.85 F2400.1
G1 X4.441 Y123.335 Z0.85 F2400.1
G1 X3.968 Y123.396 Z0.85 F2400.1
G1 X10.298 Y117.066 Z0.85 F2400.1
G1 X9.995 Y116.412 Z0.85 F2400.1
G1 X9.899 Y116.051 Z0.85 F2400.1
G1 X7.993 Y117.957 Z0.85 F2400.1
G1 X7.993 Y116.543 Z0.85 F2400.1
G1 X9.631 Y114.905 Z0.85 F2400.1
G1 X9.531 Y113.756 Z0.85 F2400.1
G1 X9.547 Y113.575 Z0.85 F2400.1
G1 X7.993 Y115.128 Z0.85 F2400.1
G1 X7.993 Y113.714 Z0.85 F2400.1
G1 X9.772 Y111.936 Z0.85 F2400.1
G1 X9.996 Y111.095 Z0.85 F2400.1
G1 X10.564 Y109.872 Z0.85 F2400.1
G1 X10.899 Y109.394 Z0.85 F2400.1
G1 X7.993 Y112.3 Z0.85 F2400.1
G1 X7.993 Y110.886 Z0.85 F2400.1
G1 X19.201 Y99.677 Z0.85 F2400.1
G1 X18.615 Y99.551 Z0.85 F2400.1
G1 X17.961 Y99.504 Z0.85 F2400.1
G1 X7.993 Y109.471 Z0.85 F2400.1
G1 X7.992 Y108.734 Z0.85 F2400.1
G1 X7.938 Y108.469 Z0.85 F2400.1
G1 X7.78 Y108.271 Z0.85 F2400.1
G1 X16.594 Y99.456 Z0.85 F2400.1
G1 X15.18 Y99.456 Z0.85 F2400.1
G1 X6.578 Y108.058 Z0.85 F2400.1
G1 X5.164 Y108.058 Z0.85 F2400.1
G1 X13.766 Y99.456 Z0.85 F2400.1
G1 X12.352 Y99.456 Z0.85 F2400.1
G1 X3.75 Y108.058 Z0.85 F2400.1
G1 X2.336 Y108.058 Z0.85 F2400.1
G1 X10.938 Y99.456 Z0.85 F2400.1
G1 X9.523 Y99.456 Z0.85 F2400.1
G1 X0.921 Y108.058 Z0.85 F2400.1
G1 X-.493 Y108.058 Z0.85 F2400.1
G1 X5.079 Y102.486 Z0.85 F2400.1
G1 X4.627 Y102.804 Z0.85 F2400.1
G1 X3.895 Y103.145 Z0.85 F2400.1
G1 X3.114 Y103.354 Z0.85 F2400.1
G1 X2.766 Y103.385 Z0.85 F2400.1
G1 X-1.907 Y108.058 Z0.85 F2400.1
G1 X-2.807 Y108.058 Z0.85 F2400.1
G1 X-3.195 Y108.239 Z0.85 F2400.1
G1 X-3.399 Y108.626 Z0.85 F2400.1
M103
G1 X-3.805 Y108.626 Z0.85 F7200
G1 X-9.398 Y107.616 Z0.85 F7200
G1 X-9.6 Y107.265 Z0.85 F7200
M101
G1 X-12.908 Y110.573 Z0.85 F2400.1
G1 X-13.301 Y110.61 Z0.85 F2400.1
G1 X-13.843 Y110.762 Z0.85 F2400.1
G1 X-14.352 Y111.008 Z0.85 F2400.1
G1 X-14.788 Y111.327 Z0.85 F2400.1
G1 X-15.195 Y111.743 Z0.85 F2400.1
G1 X-15.496 Y112.191 Z0.85 F2400.1
G1 X-15.694 Y112.611 Z0.85 F2400.1
G1 X-15.893 Y113.318 Z0.85 F2400.1
G1 X-16.324 Y113.258 Z0.85 F2400.1
G1 X-16.324 Y112.575 Z0.85 F2400.1
G1 X-12.699 Y108.95 Z0.85 F2400.1
G1 X-12.961 Y108.909 Z0.85 F2400.1
G1 X-13.666 Y108.503 Z0.85 F2400.1
G1 X-16.324 Y111.161 Z0.85 F2400.1
G1 X-16.324 Y109.747 Z0.85 F2400.1
G1 X-14.564 Y107.987 Z0.85 F2400.1
G1 X-15.462 Y107.47 Z0.85 F2400.1
G1 X-16.324 Y108.332 Z0.85 F2400.1
G1 X-16.324 Y107.515 Z0.85 F2400.1
G1 X-16.378 Y107.294 Z0.85 F2400.1
G1 X-16.115 Y107.096 Z0.85 F2400.1
M103
G1 X-16.726 Y106.33 Z0.85 F7200
M101
G1 X-16.436 Y106.195 Z0.85 F2400.1
G1 X-16.436 Y105.616 Z0.85 F2400.1
G1 X-16.956 Y106.136 Z0.85 F2400.1
G1 X-17.493 Y105.681 Z0.85 F2400.1
G1 X-17.803 Y105.569 Z0.85 F2400.1
G1 X-16.436 Y104.202 Z0.85 F2400.1
G1 X-16.436 Y102.883 Z0.85 F2400.1
G1 X-16.345 Y102.697 Z0.85 F2400.1
G1 X-19.049 Y105.401 Z0.85 F2400.1
G1 X-19.098 Y105.401 Z0.85 F2400.1
G1 X-19.864 Y105.68 Z0.85 F2400.1
G1 X-20.496 Y106.209 Z0.85 F2400.1
G1 X-20.891 Y106.896 Z0.85 F2400.1
M103
G1 X-21.275 Y106.793 Z0.85 F7200
G1 X-16.77 Y102.41 Z0.85 F7200
G1 X-15.989 Y102.341 Z0.85 F7200
M101
G1 X-13.104 Y99.456 Z0.85 F2400.1
G1 X-11.69 Y99.456 Z0.85 F2400.1
G1 X-12.797 Y100.563 Z0.85 F2400.1
G1 X-12.581 Y100.563 Z0.85 F2400.1
G1 X-12.369 Y100.641 Z0.85 F2400.1
G1 X-11.793 Y100.973 Z0.85 F2400.1
G1 X-10.276 Y99.456 Z0.85 F2400.1
G1 X-8.861 Y99.456 Z0.85 F2400.1
G1 X-10.896 Y101.49 Z0.85 F2400.1
G1 X-9.998 Y102.007 Z0.85 F2400.1
G1 X-7.447 Y99.456 Z0.85 F2400.1
G1 X-6.033 Y99.456 Z0.85 F2400.1
G1 X-9.132 Y102.555 Z0.85 F2400.1
G1 X-8.972 Y102.889 Z0.85 F2400.1
G1 X-8.973 Y103.81 Z0.85 F2400.1
G1 X-4.619 Y99.456 Z0.85 F2400.1
G1 X-3.205 Y99.456 Z0.85 F2400.1
G1 X-8.975 Y105.226 Z0.85 F2400.1
G1 X-8.977 Y106.642 Z0.85 F2400.1
G1 X-2.222 Y99.887 Z0.85 F2400.1
