%
(Header)
(Generated by gcodetools from Inkscape.)
(Using default header. To add your own header create file "header" in the output dir.)
M3
(Header end.)
G21 (All units in mm)

(Start cutting path id: text2)
(Change tool to Default tool)

G00 Z5.000000
G00 X34.078634 Y116.335514

G01 Z-1.000000 F100.0(Penetrate)
G01 X34.078634 Y109.377799 Z-1.000000 F400.000000
G01 X30.928439 Y109.377799 Z-1.000000
G02 X29.286405 Y109.645424 Z-1.000000 I-0.000000 J5.171236
G02 X28.224728 Y110.283170 Z-1.000000 I0.909961 J2.717419
G02 X27.548258 Y111.308278 Z-1.000000 I1.863171 J1.965264
G02 X27.269747 Y112.862858 Z-1.000000 I4.199383 J1.554580
G02 X27.547357 Y114.405422 Z-1.000000 I4.424501 J0.000000
G02 X28.224728 Y115.430143 Z-1.000000 I2.547118 J-0.947479
G02 X29.286405 Y116.067889 Z-1.000000 I1.971638 J-2.079672
G02 X30.928439 Y116.335514 Z-1.000000 I1.642034 J-4.903609
G01 X34.078634 Y116.335514 Z-1.000000
G00 Z5.000000

(Change tool to Default tool)

G00 Z5.000000
G00 X36.583907 Y118.394303

G01 Z-1.000000 F100.0(Penetrate)
G01 X30.928439 Y118.394303 Z-1.000000 F400.000000
G03 X27.980600 Y117.960559 Z-1.000000 I-0.000000 J-10.234019
G03 X26.227950 Y116.980436 Z-1.000000 I1.338937 J-4.451378
G03 X25.097300 Y115.366195 Z-1.000000 I2.727032 J-3.113160
G03 X24.628048 Y112.862858 Z-1.000000 I6.442697 J-2.503337
G03 X25.099147 Y110.335554 Z-1.000000 I7.014663 J0.000000
G03 X26.227950 Y108.720475 Z-1.000000 I3.844117 J1.484703
G03 X27.978265 Y107.749450 Z-1.000000 I3.080060 J3.488917
G03 X30.928439 Y107.319010 Z-1.000000 I2.950174 J9.894834
G01 X34.078634 Y107.319010 Z-1.000000
G01 X34.078634 Y99.877604 Z-1.000000
G01 X36.583907 Y99.877604 Z-1.000000
G01 X36.583907 Y118.394303 Z-1.000000
G00 Z5.000000

(Change tool to Default tool)

G00 Z5.000000
G00 X12.486154 Y108.559245

G01 Z-1.000000 F100.0(Penetrate)
G03 X11.755450 Y108.175429 Z-1.000000 I0.844590 J-2.495380 F400.000000
G03 X10.923458 Y107.393424 Z-1.000000 I3.014752 J-4.041052
G03 X10.228957 Y106.451245 Z-1.000000 I5.863865 J-5.049438
G03 X9.385568 Y104.937760 Z-1.000000 I14.370345 J-8.999608
G01 X6.843087 Y99.877604 Z-1.000000
G01 X9.534396 Y99.877604 Z-1.000000
G01 X11.903243 Y104.627702 Z-1.000000
G02 X12.955040 Y106.373046 Z-1.000000 I10.884113 J-5.369499
G02 X13.689181 Y107.095768 Z-1.000000 I2.512926 J-1.818399
G02 X14.603110 Y107.521112 Z-1.000000 I1.613121 J-2.271539
G02 X16.033224 Y107.703483 Z-1.000000 I1.430114 J-5.516154
G01 X18.761739 Y107.703483 Z-1.000000
G01 X18.761739 Y99.877604 Z-1.000000
G01 X21.267013 Y99.877604 Z-1.000000
G01 X21.267013 Y118.394303 Z-1.000000
G01 X15.611544 Y118.394303 Z-1.000000
G03 X12.589093 Y117.978994 Z-1.000000 I0.000000 J-11.205737
G03 X10.873849 Y117.067252 Z-1.000000 I1.225301 J-4.374440
G03 X9.774805 Y115.525661 Z-1.000000 I2.502064 J-2.946358
G03 X9.311154 Y113.061295 Z-1.000000 I6.317382 J-2.464366
G03 X9.542834 Y111.386420 Z-1.000000 I6.169875 J0.000000
G03 X10.129708 Y110.159147 Z-1.000000 I3.843930 J1.084185
G03 X11.085982 Y109.215742 Z-1.000000 I3.038816 J2.123905
G03 X12.486154 Y108.559245 Z-1.000000 I2.759995 J4.065110
G01 X12.486154 Y108.559245 Z-1.000000
G00 Z5.000000

(Change tool to Default tool)

G00 Z5.000000
G00 X18.761739 Y116.335514

G01 Z-1.000000 F100.0(Penetrate)
G01 X18.761739 Y109.762272 Z-1.000000 F400.000000
G01 X15.611544 Y109.762272 Z-1.000000
G02 X13.899083 Y110.017252 Z-1.000000 I-0.000000 J5.877985
G02 X12.883029 Y110.593229 Z-1.000000 I0.779304 J2.558909
G02 X12.226741 Y111.557965 Z-1.000000 I1.669402 J1.841253
G02 X11.952853 Y113.061295 Z-1.000000 I3.988833 J1.503330
G02 X12.228727 Y114.561289 Z-1.000000 I4.215857 J0.000000
G02 X12.883029 Y115.504557 Z-1.000000 I2.232233 J-0.849835
G02 X13.899083 Y116.080534 Z-1.000000 I1.795358 J-1.982932
G02 X15.611544 Y116.335514 Z-1.000000 I1.712461 J-5.623005
G01 X18.761739 Y116.335514 Z-1.000000
G00 Z5.000000

(Change tool to Default tool)

G00 Z5.000000
G00 X3.618476 Y118.394303

G01 Z-1.000000 F100.0(Penetrate)
G01 X1.113203 Y118.394303 Z-1.000000 F400.000000
G01 X1.113203 Y99.877604 Z-1.000000
G01 X3.618476 Y99.877604 Z-1.000000
G01 X3.618476 Y118.394303 Z-1.000000
G00 Z5.000000

(Change tool to Default tool)

G00 Z5.000000
G00 X-1.330056 Y118.394303

G01 Z-1.000000 F100.0(Penetrate)
G01 X-4.021365 Y118.394303 Z-1.000000 F400.000000
G01 X-9.155935 Y110.779264 Z-1.000000
G01 X-14.253298 Y118.394303 Z-1.000000
G01 X-16.944607 Y118.394303 Z-1.000000
G01 X-10.396169 Y108.695670 Z-1.000000
G01 X-10.396169 Y99.877604 Z-1.000000
G01 X-7.878493 Y99.877604 Z-1.000000
G01 X-7.878493 Y108.695670 Z-1.000000
G01 X-1.330056 Y118.394303 Z-1.000000
G00 Z5.000000

(Change tool to Default tool)

G00 Z5.000000
G00 X-23.604664 Y115.926237

G01 Z-1.000000 F100.0(Penetrate)
G01 X-20.206422 Y106.711295 Z-1.000000 F400.000000
G01 X-27.015308 Y106.711295 Z-1.000000
G01 X-23.604664 Y115.926237 Z-1.000000
G00 Z5.000000

(Change tool to Default tool)

G00 Z5.000000
G00 X-22.190797 Y118.394303

G01 Z-1.000000 F100.0(Penetrate)
G01 X-25.030933 Y118.394303 Z-1.000000 F400.000000
G01 X-32.087867 Y99.877604 Z-1.000000
G01 X-29.483375 Y99.877604 Z-1.000000
G01 X-27.796656 Y104.627702 Z-1.000000
G01 X-19.449879 Y104.627702 Z-1.000000
G01 X-17.763160 Y99.877604 Z-1.000000
G01 X-15.121461 Y99.877604 Z-1.000000
G01 X-22.190797 Y118.394303 Z-1.000000
G00 Z5.000000

(End cutting path id: text2)


(Footer)
M5
G00 X0.0000 Y0.0000
M2
(Using default footer. To add your own footer create file "footer" in the output dir.)
(end)
%