%
(Header)
(Generated by gcodetools from Inkscape.)
(Using default header. To add your own header create file "header" in the output dir.)
M3
(Header end.)
G21 (All units in mm)

(Start cutting path id: text1)
(Change tool to Default tool)

G00 Z5.000000
G00 X-25.443523 Y107.692057

G01 Z-1.000000 F100.0(Penetrate)
G02 X-24.722729 Y107.309070 Z-1.000000 I-0.838700 J-2.448230 F400.000000
G02 X-23.899615 Y106.526231 Z-1.000000 I-3.020464 J-4.000013
G02 X-23.213969 Y105.584869 Z-1.000000 I-5.885646 J-5.007217
G02 X-22.380214 Y104.070554 Z-1.000000 I-14.478647 J-8.958372
G01 X-19.868302 Y99.010361 Z-1.000000
G01 X-22.527258 Y99.010364 Z-1.000000
G01 X-24.867624 Y103.760496 Z-1.000000
G03 X-25.907914 Y105.507469 Z-1.000000 I-10.947351 J-5.335721
G03 X-26.632090 Y106.228578 Z-1.000000 I-2.502888 J-1.789349
G03 X-27.536234 Y106.654151 Z-1.000000 I-1.599919 J-2.225851
G03 X-28.947953 Y106.836298 Z-1.000000 I-1.411726 J-5.379729
G01 X-31.643669 Y106.836301 Z-1.000000
G01 X-31.643678 Y99.010374 Z-1.000000
G01 X-34.118835 Y99.010376 Z-1.000000
G01 X-34.118815 Y117.527186 Z-1.000000
G01 X-28.531332 Y117.527179 Z-1.000000
G02 X-25.548234 Y117.112473 Z-1.000000 I-0.000012 J-10.936570
G02 X-23.850590 Y116.200117 Z-1.000000 I-1.221541 J-4.308554
G02 X-22.765832 Y114.662265 Z-1.000000 I-2.514011 J-2.924818
G02 X-22.306685 Y112.194137 Z-1.000000 I-6.404047 J-2.468121
G02 X-22.535891 Y110.517743 Z-1.000000 I-6.245146 J0.000007
G02 X-23.115403 Y109.291967 Z-1.000000 I-3.863117 J1.076496
G02 X-24.062368 Y108.347127 Z-1.000000 I-3.037827 J2.097691
G02 X-25.443523 Y107.692057 Z-1.000000 I-2.730271 J3.972972
G01 X-25.443523 Y107.692057 Z-1.000000
G00 Z5.000000

(Change tool to Default tool)

G00 Z5.000000
G00 X-31.643660 Y115.468381

G01 Z-1.000000 F100.0(Penetrate)
G01 X-31.643667 Y108.895102 Z-1.000000 F400.000000
G01 X-28.531341 Y108.895099 Z-1.000000
G03 X-26.841367 Y109.149657 Z-1.000000 I0.000006 J5.736980
G03 X-25.835624 Y109.726059 Z-1.000000 I-0.777491 J2.522257
G03 X-25.187825 Y110.688625 Z-1.000000 I-1.678127 J1.828632
G03 X-24.916628 Y112.194139 Z-1.000000 I-4.043258 J1.505519
G03 X-25.189798 Y113.696346 Z-1.000000 I-4.266994 J0.000005
G03 X-25.835619 Y114.637411 Z-1.000000 I-2.231726 J-0.839422
G03 X-26.841360 Y115.213815 Z-1.000000 I-1.783238 J-1.945852
G03 X-28.531334 Y115.468377 Z-1.000000 I-1.689980 J-5.482421
G01 X-31.643660 Y115.468381 Z-1.000000
G00 Z5.000000

(Change tool to Default tool)

G00 Z5.000000
G00 X-11.585085 Y115.059080

G01 Z-1.000000 F100.0(Penetrate)
G01 X-14.942487 Y105.844086 Z-1.000000 F400.000000
G01 X-8.215450 Y105.844078 Z-1.000000
G01 X-11.585085 Y115.059080 Z-1.000000
G00 Z5.000000

(Change tool to Default tool)

G00 Z5.000000
G00 X-12.981953 Y117.527162

G01 Z-1.000000 F100.0(Penetrate)
G01 X-10.175958 Y117.527159 Z-1.000000 F400.000000
G01 X-3.203878 Y99.010342 Z-1.000000
G01 X-5.777061 Y99.010345 Z-1.000000
G01 X-7.443498 Y103.760476 Z-1.000000
G01 X-15.689937 Y103.760485 Z-1.000000
G01 X-17.356385 Y99.010358 Z-1.000000
G01 X-19.966327 Y99.010361 Z-1.000000
G01 X-12.981953 Y117.527162 Z-1.000000
G00 Z5.000000

(Change tool to Default tool)

G00 Z5.000000
G00 X-0.532651 Y117.527149

G01 Z-1.000000 F100.0(Penetrate)
G01 X1.942506 Y117.527146 Z-1.000000 F400.000000
G01 X1.942498 Y109.936871 Z-1.000000
G01 X10.936385 Y109.936861 Z-1.000000
G01 X10.936393 Y117.527136 Z-1.000000
G01 X13.411550 Y117.527133 Z-1.000000
G01 X13.411530 Y99.010324 Z-1.000000
G01 X10.936373 Y99.010327 Z-1.000000
G01 X10.936383 Y107.828450 Z-1.000000
G01 X1.942495 Y107.828460 Z-1.000000
G01 X1.942486 Y99.010337 Z-1.000000
G01 X-0.532671 Y99.010339 Z-1.000000
G01 X-0.532651 Y117.527149 Z-1.000000
G00 Z5.000000

(Change tool to Default tool)

G00 Z5.000000
G00 X18.055537 Y117.527128

G01 Z-1.000000 F100.0(Penetrate)
G01 X20.542947 Y117.527125 Z-1.000000 F400.000000
G01 X20.542935 Y106.278136 Z-1.000000
G03 X20.891980 Y103.425291 Z-1.000000 I11.832972 J-0.000013
G03 X21.608963 Y101.986894 Z-1.000000 I3.590990 J0.892072
G03 X22.864825 Y101.085363 Z-1.000000 I2.307519 J1.888957
G03 X25.064379 Y100.684643 Z-1.000000 I2.199561 J5.836354
G03 X27.252076 Y101.084525 Z-1.000000 I0.000007 J6.184196
G03 X28.507545 Y101.986886 Z-1.000000 I-1.057352 J2.795666
G03 X29.224532 Y103.425282 Z-1.000000 I-2.874001 J2.330475
G03 X29.573583 Y106.278126 Z-1.000000 I-11.483921 J2.852857
G01 X29.573595 Y117.527115 Z-1.000000
G01 X32.061005 Y117.527113 Z-1.000000
G01 X32.060993 Y105.968062 Z-1.000000
G02 X31.521906 Y102.563668 Z-1.000000 I-11.019189 J0.000012
G02 X30.284265 Y100.498595 Z-1.000000 I-5.113046 J1.660946
G02 X28.283230 Y99.203597 Z-1.000000 I-3.715399 J3.547544
G02 X25.064377 Y98.650641 Z-1.000000 I-3.218843 J9.092220
G02 X21.832083 Y99.203466 Z-1.000000 I0.000011 J9.725865
G02 X19.819988 Y100.498607 Z-1.000000 I1.721132 J4.884444
G02 X18.591436 Y102.561331 Z-1.000000 I3.889584 J3.713845
G02 X18.055525 Y105.968078 Z-1.000000 I10.560176 J3.406735
G01 X18.055537 Y117.527128 Z-1.000000
G00 Z5.000000

(Change tool to Default tool)

G00 Z5.000000
G00 X36.704991 Y117.527108

G01 Z-1.000000 F100.0(Penetrate)
G01 X39.180147 Y117.527105 Z-1.000000 F400.000000
G01 X39.180129 Y101.118707 Z-1.000000
G01 X48.088244 Y101.118697 Z-1.000000
G01 X48.088242 Y99.010286 Z-1.000000
G01 X36.704971 Y99.010299 Z-1.000000
G01 X36.704991 Y117.527108 Z-1.000000
G00 Z5.000000

(End cutting path id: text1)


(Footer)
M5
G00 X0.0000 Y0.0000
M2
(Using default footer. To add your own footer create file "footer" in the output dir.)
(end)
%
